proprietary/odm/odm/etc/Custom_LUT_hlg.cube
LUT_3D_SIZE 9
0.00000000 0.00000000 0.00000000
0.10570610 0.00000000 0.00809796
0.19605484 0.00000000 0.01501942
0.28142947 0.00000000 0.02155982
0.36372254 0.00000000 0.02786415
0.46365394 0.00000000 0.03551972
0.60917060 0.00000000 0.04666749
0.81500136 0.00000000 0.06243583
0.96543824 0.00000000 0.08364557
0.00000000 0.09762912 0.00000000
0.09810204 0.09611336 0.00000000
0.19291826 0.08989279 0.00000000
0.27911010 0.07399808 0.01166875
0.36161295 0.02382558 0.02197298
0.46207338 0.00000000 0.03146795
0.60804669 0.00000000 0.04389332
0.81421978 0.00000000 0.06054342
0.96543713 0.00000000 0.08237116
0.00000000 0.18107415 0.00000000
0.05195623 0.17997713 0.00000000
0.18199065 0.17830141 0.00000000
0.27342825 0.17419569 0.00000000
0.35791172 0.16677365 0.00000000
0.45900497 0.15125348 0.00000000
0.60515708 0.10398824 0.03359103
0.81186409 0.00000000 0.05430025
0.96543378 0.00000000 0.07837143
0.00000000 0.25993477 0.00000000
0.00000000 0.25915145 0.00000000
0.15633123 0.25785361 0.00000000
0.26125163 0.25595565 0.00000000
0.35035545 0.25249744 0.00000000
0.45407218 0.24539677 0.00000000
0.60200332 0.22737987 0.00000000
0.80908052 0.17578002 0.04084448
0.96542820 0.00000000 0.07098442
0.00000000 0.33594130 0.00000000
0.00000000 0.33537257 0.00000000
0.09639333 0.33390790 0.00000000
0.23988137 0.33279851 0.00000000
0.33764713 0.33080250 0.00000000
0.44601825 0.32667650 0.00000000
0.59704124 0.31624754 0.00000000
0.80600627 0.28917074 0.00000000
0.96673551 0.20560186 0.05842106
0.00000000 0.42823923 0.00000000
0.00000000 0.42781944 0.00000000
0.00000000 0.42655653 0.00000000
0.19198051 0.42533935 0.00000000
0.31215417 0.42414291 0.00000000
0.43041275 0.42168762 0.00000000
0.58768593 0.41544570 0.00000000
0.80039918 0.39936645 0.00000000
0.96996261 0.35437918 0.00674749
0.00000000 0.56264778 0.00000000
0.00000000 0.56234874 0.00000000
0.00000000 0.56144877 0.00000000
0.00000000 0.55994510 0.00000000
0.24117099 0.55890076 0.00000000
0.39180189 0.55752035 0.00000000
0.56550065 0.55403707 0.00000000
0.78751507 0.54500709 0.00000000
0.97555884 0.51886449 0.00000000
0.00000000 0.75275463 0.00000000
0.00000000 0.75254607 0.00000000
0.00000000 0.75191989 0.00000000
0.00000000 0.75087508 0.00000000
0.00000000 0.74940966 0.00000000
0.27640756 0.74797615 0.00000000
0.50954932 0.74608525 0.00000000
0.75657393 0.74123699 0.00000000
0.98434739 0.72643841 0.00000000
0.00000000 0.98458782 0.00000000
0.00000000 0.98458782 0.00000000
0.00000000 0.98458782 0.00000000
0.00000000 0.98458782 0.00000000
0.00000000 0.98458782 0.00000000
0.00000000 0.98458782 0.00000000
0.33275476 0.98564974 0.00000000
0.67699766 0.98994932 0.00000000
0.99648107 0.99648107 0.00000000
0.00000000 0.00000000 0.09203224
0.10434328 0.00000000 0.09484140
0.19544783 0.00000000 0.09858645
0.28104899 0.00000000 0.10142246
0.36344731 0.00000000 0.10391350
0.46345017 0.00000000 0.10689923
0.60902762 0.00000000 0.11148842
0.81489965 0.00000000 0.11885029
0.96549597 0.00000000 0.12992012
0.00000000 0.09765042 0.09499846
0.09596012 0.09596012 0.09596012
0.19219101 0.08952292 0.09838119
0.27869671 0.07338181 0.10077282
0.36132649 0.02007043 0.10307595
0.46187092 0.00000000 0.10607388
0.60790238 0.00000000 0.11068617
0.81411857 0.00000000 0.11808873
0.96549486 0.00000000 0.12923674
0.00000000 0.18109119 0.09610653
0.04519944 0.17995456 0.09623555
0.18100756 0.17822483 0.09757690
0.27291413 0.17407029 0.09932401
0.35757363 0.16660183 0.10127610
0.45877662 0.15102142 0.10392802
0.60500560 0.10353708 0.10832027
0.81176439 0.00000000 0.11576228
0.96549152 0.00000000 0.12715564
0.00000000 0.25993527 0.09392358
0.00000000 0.25915322 0.09403694
0.15496250 0.25781904 0.09475295
0.26061913 0.25589982 0.09609715
0.34995557 0.25242253 0.09776717
0.45380579 0.24529865 0.10021085
0.60183546 0.22724853 0.10449375
0.80897272 0.17555850 0.11189639
0.96548597 0.00000000 0.12357715
0.00000000 0.33592791 0.08865503
0.00000000 0.33535891 0.08879326
0.09347711 0.33387625 0.08926741
0.23910438 0.33275946 0.09042692
0.33717840 0.33075273 0.09195160
0.44571120 0.32661593 0.09429720
0.59684708 0.31617193 0.09858778
0.80588916 0.28907034 0.10622441
0.96678616 0.20542028 0.11846948
0.00000000 0.42820999 0.07656504
0.00000000 0.42779016 0.07674893
0.00000000 0.42652814 0.07729662
0.19084607 0.42529742 0.07835897
0.31158622 0.42409865 0.07993167
0.43005509 0.42163983 0.08242097
0.58746151 0.41539366 0.08709665
0.80026066 0.39930509 0.09554028
0.97000914 0.35430574 0.10930436
0.00000000 0.56260089 0.02069017
0.00000000 0.56230192 0.02187358
0.00000000 0.56140235 0.02497551
0.00000000 0.55989937 0.02919127
0.24030130 0.55884680 0.03401324
0.39135600 0.55746865 0.04045152
0.56523052 0.55398789 0.05042998
0.78734622 0.54496019 0.06516282
0.97557913 0.51882153 0.08579438
0.00000000 0.75272113 0.00000000
0.00000000 0.75251256 0.00000000
0.00000000 0.75188634 0.00000000
0.00000000 0.75084149 0.00000000
0.00000000 0.74937599 0.00000000
0.27565699 0.74793644 0.00000000
0.50922403 0.74604525 0.00000000
0.75638133 0.74119833 0.00000000
0.98434568 0.72640286 0.00000000
0.00000000 0.98458782 0.00000000
0.00000000 0.98458782 0.00000000
0.00000000 0.98458782 0.00000000
0.00000000 0.98458782 0.00000000
0.00000000 0.98458782 0.00000000
0.00000000 0.98458782 0.00000000
0.33215187 0.98564529 0.00000000
0.67677047 0.98994553 0.00000000
0.99648107 0.99648107 0.00000000
0.00000000 0.00000000 0.16844400
0.09909754 0.00000000 0.17105761
0.19348816 0.00000000 0.17586842
0.27986702 0.00000000 0.17972822
0.36260775 0.00000000 0.18290410
0.46283656 0.00000000 0.18631378
0.60859589 0.00000000 0.19083042
0.81460016 0.00000000 0.19696924
0.96566254 0.00000000 0.20414952
0.00000000 0.09748412 0.17215078
0.08877569 0.09535573 0.17308294
0.18990865 0.08836314 0.17637906
0.27741493 0.07146796 0.17959249
0.36045922 0.00000000 0.18247226
0.46125243 0.00000000 0.18590492
0.60746954 0.00000000 0.19043649
0.81381805 0.00000000 0.19658609
0.96566143 0.00000000 0.20378712
0.00000000 0.18116286 0.17624290
0.00000000 0.17993431 0.17622957
0.17801297 0.17801297 0.17801297
0.27136317 0.17369581 0.18023294
0.35656699 0.16608954 0.18252406
0.45808626 0.15031984 0.18532971
0.60454443 0.10216409 0.18939571
0.81146190 0.00000000 0.19542983
0.96565810 0.00000000 0.20269449
0.00000000 0.26000347 0.17815190
0.00000000 0.25922121 0.17817342
0.15077090 0.25777222 0.17887189
0.25874641 0.25577398 0.18039601
0.34878720 0.25222432 0.18215607
0.45303310 0.24501917 0.18450773
0.60133643 0.22685553 0.18817813
0.80864930 0.17489121 0.19375455
0.96565254 0.00000000 0.20085493
0.00000000 0.33598312 0.17830891
0.00000000 0.33541517 0.17834615
0.08385942 0.33387331 0.17854774
0.23680029 0.33271473 0.17965927
0.33582629 0.33066344 0.18103601
0.44484347 0.32647510 0.18300731
0.59630366 0.31596600 0.18629181
0.80554178 0.28877022 0.19156836
0.96693816 0.20487392 0.19850483
0.00000000 0.42825523 0.17642590
0.00000000 0.42783514 0.17647375
0.00000000 0.42657141 0.17661680
0.18743462 0.42528872 0.17720152
0.30994525 0.42406490 0.17827494
0.42905956 0.42157538 0.17990046
0.58685481 0.41528519 0.18278706
0.79989095 0.39914390 0.18771982
0.97014350 0.35408328 0.19470904
0.00000000 0.56263316 0.16946802
0.00000000 0.56233354 0.16952700
0.00000000 0.56143332 0.16970359
0.00000000 0.55993323 0.16999829
0.23773284 0.55884250 0.17071991
0.39010717 0.55744640 0.17205000
0.56452385 0.55394311 0.17455688
0.78692626 0.54487964 0.17913606
0.97569457 0.51872157 0.18634864
0.00000000 0.75270861 0.14892080
0.00000000 0.75250011 0.14899945
0.00000000 0.75187413 0.14923499
0.00000000 0.75082956 0.14962626
0.00000000 0.74936448 0.15017136
0.27341894 0.74790152 0.15126195
0.50830347 0.74600884 0.15366372
0.75587050 0.74114834 0.15826754
0.98441912 0.72635416 0.16638029
0.00000000 0.98459742 0.06707033
0.00000000 0.98459751 0.06732888
0.00000000 0.98459778 0.06809628
0.00000000 0.98459822 0.06934905
0.00000000 0.98459885 0.07105146
0.00000000 0.98459988 0.07374842
0.33033818 0.98564431 0.07887551
0.67609763 0.98994781 0.08823843
0.99649749 0.99649749 0.10395225
0.00000000 0.00000000 0.24167768
0.08765167 0.00000000 0.24313988
0.18977762 0.00000000 0.24797736
0.27774759 0.00000000 0.25245488
0.36114146 0.00000000 0.25629043
0.46178114 0.00000000 0.26038401
0.60786175 0.00000000 0.26559714
0.81409551 0.00000000 0.27214296
0.96594443 0.00000000 0.27835348
0.00000000 0.09654792 0.24455075
0.07357554 0.09400255 0.24506489
0.18575234 0.08625426 0.24867172
0.27515327 0.06804438 0.25246501
0.35898305 0.00000000 0.25597494
0.46019367 0.00000000 0.26009882
0.60673357 0.00000000 0.26533183
0.81331256 0.00000000 0.27189020
0.96594332 0.00000000 0.27811852
0.00000000 0.18112764 0.24944585
0.00000000 0.17989393 0.24939850
0.17273078 0.17759515 0.25132816
0.26868997 0.17303991 0.25401460
0.35483840 0.16521079 0.25677981
0.45691596 0.14913154 0.26010854
0.60376730 0.09980980 0.26472402
0.81095364 0.00000000 0.27112867
0.96593999 0.00000000 0.27741195
0.00000000 0.26006374 0.25300101
0.00000000 0.25928036 0.25299130
0.14332206 0.25766501 0.25370170
0.25554420 0.25554420 0.25554420
0.34679872 0.25187768 0.25764290
0.45172573 0.24454481 0.26038158
0.60049475 0.22619438 0.26446559
0.80810861 0.17376953 0.27022320
0.96593444 0.00000000 0.27622873
0.00000000 0.33605700 0.25513751
0.00000000 0.33548835 0.25514565
0.06289588 0.33385725 0.25523221
0.23286366 0.33262769 0.25654320
0.33353946 0.33050585 0.25814170
0.44338242 0.32623543 0.26037145
0.59538755 0.31561792 0.26392355
0.80496717 0.28827044 0.26923818
0.96719143 0.20395779 0.27491976
0.00000000 0.42831866 0.25613983
0.00000000 0.42789847 0.25615929
0.00000000 0.42663467 0.25621734
0.18152839 0.42526872 0.25676655
0.30717281 0.42400385 0.25794930
0.42738368 0.42146177 0.25969573
0.58583778 0.41510238 0.26267410
0.79926870 0.39887233 0.26744423
0.97037491 0.35371442 0.27302407
0.00000000 0.56268092 0.25471607
0.00000000 0.56238182 0.25474429
0.00000000 0.56148318 0.25482874
0.00000000 0.55998208 0.25496939
0.23335606 0.55883342 0.25560517
0.38801041 0.55740919 0.25689306
0.56333917 0.55386564 0.25924349
0.78622867 0.54474772 0.26332109
0.97588039 0.51855125 0.26878119
0.00000000 0.75274404 0.24690012
0.00000000 0.75253648 0.24693612
0.00000000 0.75191334 0.24704402
0.00000000 0.75086892 0.24722213
0.00000000 0.74940315 0.24747076
0.26964954 0.74790070 0.24818924
0.50678800 0.74598462 0.25001939
0.75505147 0.74109814 0.25343121
0.98455857 0.72628550 0.25884882
0.00000000 0.98474493 0.22218381
0.00000000 0.98474502 0.22223230
0.00000000 0.98474528 0.22237770
0.00000000 0.98474573 0.22261974
0.00000000 0.98474635 0.22295797
0.00000000 0.98474738 0.22351590
0.32732373 0.98576235 0.22486347
0.67504007 0.99004834 0.22807504
0.99659611 0.99659611 0.23401603
0.00000000 0.00000000 0.31231063
0.06402045 0.00000000 0.31285903
0.18383181 0.00000000 0.31732199
0.27452130 0.00000000 0.32201364
0.35896916 0.00000000 0.32628011
0.46025385 0.00000000 0.33095247
0.60680913 0.00000000 0.33690712
0.81337812 0.00000000 0.34418711
0.96632822 0.00000000 0.35027137
0.00000000 0.09453181 0.31445843
0.03417470 0.09162125 0.31442613
0.17927598 0.08296708 0.31798035
0.27174690 0.06267151 0.32203310
0.35679160 0.00000000 0.32601445
0.45865831 0.00000000 0.33072079
0.60567973 0.00000000 0.33670102
0.81259338 0.00000000 0.34399578
0.96632710 0.00000000 0.35010075
0.00000000 0.18084544 0.31936159
0.00000000 0.17960339 0.31930177
0.16469489 0.17690204 0.32110001
0.26475858 0.17205464 0.32408760
0.35233169 0.16393743 0.32723066
0.45522937 0.14742497 0.33104057
0.60265464 0.09636124 0.33629283
0.81023412 0.00000000 0.34342124
0.96632376 0.00000000 0.34958821
0.00000000 0.26006053 0.32372268
0.00000000 0.25927622 0.32369748
0.13171514 0.25745793 0.32431647
0.25088778 0.25518292 0.32641723
0.34394231 0.25136880 0.32882583
0.44985708 0.24386428 0.33196336
0.59929993 0.22525749 0.33658934
0.80733743 0.17217638 0.34290872
0.96631833 0.00000000 0.34873169
0.00000000 0.33611095 0.32698296
0.00000000 0.33554273 0.32697674
0.00000000 0.33383017 0.32695682
0.22713969 0.33248231 0.32843390
0.33026970 0.33026970 0.33026970
0.44130264 0.32588730 0.33281003
0.59408869 0.31512335 0.33679920
0.80415753 0.28756648 0.34257871
0.96754585 0.20266336 0.34797185
0.00000000 0.42838746 0.32962110
0.00000000 0.42796699 0.32962637
0.00000000 0.42670214 0.32964168
0.17273449 0.42522673 0.33016562
0.30321069 0.42390889 0.33150804
0.42501005 0.42129745 0.33347081
0.58440020 0.41484118 0.33676051
0.79839036 0.39848876 0.34185986
0.97068850 0.35319251 0.34709301
0.00000000 0.56274624 0.33105189
0.00000000 0.56244678 0.33106634
0.00000000 0.56154706 0.33110952
0.00000000 0.56004404 0.33118144
0.22701119 0.55881457 0.33180586
0.38504156 0.55735627 0.33320359
0.56166970 0.55375471 0.33570743
0.78524099 0.54455692 0.33991840
0.97614307 0.51831364 0.34492868
0.00000000 0.75279456 0.32856613
0.00000000 0.75258582 0.32858711
0.00000000 0.75195916 0.32865000
0.00000000 0.75091751 0.32875651
0.00000000 0.74945177 0.32890340
0.26423537 0.74789110 0.32952967
0.50465323 0.74595046 0.33134173
0.75389445 0.74102065 0.33463416
0.98475773 0.72619208 0.33940508
0.00000000 0.98494944 0.31561971
0.00000000 0.98494952 0.31564940
0.00000000 0.98494975 0.31573847
0.00000000 0.98495014 0.31588684
0.00000000 0.98495069 0.31609439
0.00000000 0.98495159 0.31643730
0.32303400 0.98592753 0.31743920
0.67355905 0.99019554 0.32019780
0.99673420 0.99673420 0.32509038
0.00000000 0.00000000 0.39811525
0.00000000 0.00000000 0.39813313
0.17231498 0.00000000 0.40163329
0.26860227 0.00000000 0.40623900
0.35509797 0.00000000 0.41075117
0.45759252 0.00000000 0.41592246
0.60501673 0.00000000 0.42267323
0.81217209 0.00000000 0.43091774
0.96696081 0.00000000 0.43726910
0.00000000 0.09015526 0.39956084
0.00000000 0.08693093 0.39945600
0.16692630 0.07667162 0.40210304
0.26557762 0.05165261 0.40617689
0.35288432 0.00000000 0.41051932
0.45598317 0.00000000 0.41572477
0.60388315 0.00000000 0.42250520
0.81138460 0.00000000 0.43076673
0.96695978 0.00000000 0.43714369
0.00000000 0.17997507 0.40408738
0.00000000 0.17871316 0.40402268
0.14948764 0.17553327 0.40538834
0.25780044 0.17028127 0.40854586
0.34796235 0.16172000 0.41198007
0.45232945 0.14449260 0.41624915
0.60077057 0.09020468 0.42221373
0.80902269 0.00000000 0.43031653
0.96695668 0.00000000 0.43676714
0.00000000 0.25986641 0.40881814
0.00000000 0.25907899 0.40878308
0.10804906 0.25699215 0.40914418
0.24273144 0.25450093 0.41145826
0.33902774 0.25046631 0.41415229
0.44667079 0.24269822 0.41770407
0.59727626 0.22367669 0.42296617
0.80605027 0.16948590 0.43008911
0.96695151 0.00000000 0.43613857
0.00000000 0.33611036 0.41288672
0.00000000 0.33554137 0.41286976
0.00000000 0.33382654 0.41281754
0.21707635 0.33219139 0.41428444
0.32467937 0.32983774 0.41636557
0.43778483 0.32528736 0.41925948
0.59190668 0.31429112 0.42379651
0.80279571 0.28638771 0.43028067
0.96811845 0.20048826 0.43578499
0.00000000 0.42845369 0.41681789
0.00000000 0.42803345 0.41681310
0.00000000 0.42676981 0.41679864
0.15651151 0.42512833 0.41723988
0.29643754 0.42372502 0.41876988
0.42100801 0.42100801 0.42100801
0.58198856 0.41439679 0.42472988
0.79692480 0.39784851 0.43040838
0.97120192 0.35232281 0.43570731
0.00000000 0.56282923 0.42051563
0.00000000 0.56252991 0.42052050
0.00000000 0.56163075 0.42053502
0.00000000 0.56012864 0.42055924
0.21588897 0.55876940 0.42115940
0.38003300 0.55725311 0.42273212
0.55887586 0.55356090 0.42552202
0.78360594 0.54424437 0.43012837
0.97656855 0.51791451 0.43512895
0.00000000 0.75286682 0.42195316
0.00000000 0.75265889 0.42196512
0.00000000 0.75203463 0.42200094
0.00000000 0.75099283 0.42206057
0.00000000 0.74952673 0.42214125
0.25490675 0.74788128 0.42271918
0.50108781 0.74589337 0.42465888
0.75197226 0.74089199 0.42811886
0.98507724 0.72602980 0.43277164
0.00000000 0.98528747 0.41626155
0.00000000 0.98528755 0.41628174
0.00000000 0.98528778 0.41634230
0.00000000 0.98528817 0.41644321
0.00000000 0.98528872 0.41658443
0.00000000 0.98528962 0.41681788
0.31574965 0.98620074 0.41767207
0.67109379 0.99043472 0.42041002
0.99696256 0.99696256 0.42508504
0.00000000 0.00000000 0.52306671
0.00000000 0.00000000 0.52307944
0.14212920 0.00000000 0.52476225
0.25481826 0.00000000 0.52892664
0.34642000 0.00000000 0.53340651
0.45179483 0.00000000 0.53890222
0.60121276 0.00000000 0.54646411
0.80967236 0.00000000 0.55596627
0.96819269 0.00000000 0.56301268
0.00000000 0.07841011 0.52377803
0.00000000 0.07431382 0.52369648
0.13446097 0.05974083 0.52486377
0.25137224 0.00000000 0.52868688
0.34411566 0.00000000 0.53320218
0.45015601 0.00000000 0.53873410
0.60006850 0.00000000 0.54632418
0.80888193 0.00000000 0.55584644
0.96819167 0.00000000 0.56292411
0.00000000 0.17727388 0.52759394
0.00000000 0.17596353 0.52753310
0.10706696 0.17216134 0.52798840
0.24207879 0.16625418 0.53111274
0.33841593 0.15687653 0.53469284
0.44611265 0.13816073 0.53933810
0.59679905 0.07542456 0.54606783
0.80650522 0.00000000 0.55548678
0.96818858 0.00000000 0.56265829
0.00000000 0.25896812 0.53224780
0.00000000 0.25817147 0.53220868
0.00000000 0.25576179 0.53208914
0.22442968 0.25287052 0.53440357
0.32845445 0.24846281 0.53731763
0.43993157 0.24021824 0.54127026
0.59305401 0.22038771 0.54726483
0.80338901 0.16384377 0.55548357
0.96818343 0.00000000 0.56221487
0.00000000 0.33582246 0.53680814
0.00000000 0.33525025 0.53678233
0.00000000 0.33352590 0.53670396
0.19406831 0.33143279 0.53787970
0.31273242 0.32883973 0.54020430
0.43040464 0.32398601 0.54348157
0.58737418 0.31255497 0.54869474
0.79999645 0.28397099 0.55618731
0.96923989 0.19598311 0.56221025
0.00000000 0.42844080 0.54182569
0.00000000 0.42801922 0.54181126
0.00000000 0.42675400 0.54177104
0.11288934 0.42482564 0.54194663
0.28191489 0.42327424 0.54369854
0.41266419 0.42036097 0.54627510
0.57702090 0.41346480 0.55057889
0.79392384 0.39653637 0.55713536
0.97221350 0.35054864 0.56290745
0.00000000 0.56292967 0.54764181
0.00000000 0.56262987 0.54763786
0.00000000 0.56173154 0.54762813
0.00000000 0.56022925 0.54761051
0.19048528 0.55863656 0.54809433
0.36958544 0.55701113 0.54991925
0.55314599 0.55314599 0.55314599
0.78026190 0.54359259 0.55842929
0.97741529 0.51710185 0.56383283
0.00000000 0.75298858 0.55274550
0.00000000 0.75278016 0.55274934
0.00000000 0.75215457 0.55276090
0.00000000 0.75111059 0.55278014
0.00000000 0.74964626 0.55280702
0.23444562 0.74783336 0.55330749
0.49376841 0.74575598 0.55551270
0.74806393 0.74062166 0.55940073
0.98571043 0.72569456 0.56435174
0.00000000 0.98594733 0.55316831
0.00000000 0.98594741 0.55318191
0.00000000 0.98594764 0.55322272
0.00000000 0.98594803 0.55329072
0.00000000 0.98594857 0.55338591
0.00000000 0.98594947 0.55354331
0.30030206 0.98674786 0.55430724
0.66607761 0.99090269 0.55727822
0.99741529 0.99741529 0.56222762
0.00000000 0.00000000 0.69979661
0.00000000 0.00000000 0.69980548
0.00000000 0.00000000 0.69983208
0.21960318 0.00000000 0.70292375
0.32588058 0.00000000 0.70697225
0.43861269 0.00000000 0.71236140
0.59286990 0.00000000 0.72038220
0.80435174 0.00000000 0.73110451
0.97051483 0.00000000 0.73927199
0.00000000 0.02969032 0.69978914
0.00000000 0.00000000 0.69974388
0.00000000 0.00000000 0.69977049
0.21526491 0.00000000 0.70273233
0.32334346 0.00000000 0.70680192
0.43689382 0.00000000 0.71221519
0.59170106 0.00000000 0.72026295
0.80355505 0.00000000 0.73100684
0.97051388 0.00000000 0.73921084
0.00000000 0.16966292 0.70275949
0.00000000 0.16823229 0.70270883
0.00000000 0.16383821 0.70255680
0.20215868 0.15663272 0.70453364
0.31631306 0.14563007 0.70795088
0.43221352 0.12338505 0.71264711
0.58817720 0.00000000 0.71990460
0.80115938 0.00000000 0.73071376
0.97051104 0.00000000 0.73902737
0.00000000 0.25587201 0.70685242
0.00000000 0.25504840 0.70681184
0.00000000 0.25255702 0.70669137
0.17675108 0.24879753 0.70781470
0.30429990 0.24380984 0.71074350
0.42510277 0.23473570 0.71487619
0.58397078 0.21332224 0.72143714
0.79778334 0.15141957 0.73080726
0.97050631 0.00000000 0.73872143
0.00000000 0.33442203 0.71136656
0.00000000 0.33384127 0.71133661
0.00000000 0.33209092 0.71124593
0.12674896 0.32936819 0.71157122
0.28550696 0.32640275 0.71401605
0.41436401 0.32105294 0.71756163
0.57773280 0.30884340 0.72337129
0.79412878 0.27892322 0.73197147
0.97136901 0.18634131 0.73895417
0.00000000 0.42793170 0.71694125
0.00000000 0.42750796 0.71692127
0.00000000 0.42623362 0.71686121
0.00000000 0.42409943 0.71676122
0.24815819 0.42208009 0.71830710
0.39464622 0.41883495 0.72118137
0.56655548 0.41144146 0.72608143
0.78767924 0.39380191 0.73367010
0.97414491 0.34687265 0.74036189
0.00000000 0.56289837 0.72437900
0.00000000 0.56259862 0.72436903
0.00000000 0.56169814 0.72433897
0.00000000 0.56019321 0.72428842
0.11309437 0.55820842 0.72438651
0.34687035 0.55638545 0.72648536
0.54116232 0.55221128 0.73022953
0.77336468 0.54222537 0.73640143
0.97903895 0.51540528 0.74265522
0.00000000 0.75313490 0.73268150
0.00000000 0.75292664 0.73267924
0.00000000 0.75230142 0.73267239
0.00000000 0.75125300 0.73265604
0.00000000 0.74978956 0.73264008
0.18267924 0.74767675 0.73292262
0.47844190 0.74543092 0.73550207
0.74004413 0.74004413 0.74004413
0.98694725 0.72498613 0.74575007
0.00000000 0.98724048 0.73833896
0.00000000 0.98724056 0.73834810
0.00000000 0.98724080 0.73837551
0.00000000 0.98724118 0.73842120
0.00000000 0.98724173 0.73848515
0.00000000 0.98724263 0.73859092
0.26512173 0.98781031 0.73922710
0.65577693 0.99183033 0.74266238
0.99829981 0.99829981 0.74836994
0.00000000 0.00000000 0.93863346
0.00000000 0.00000000 0.93863346
0.00000000 0.00000000 0.93863346
0.06390148 0.00000000 0.93874670
0.27165302 0.00000000 0.94204678
0.40669391 0.00000000 0.94678536
0.57357920 0.00000000 0.95443597
0.79247981 0.00000000 0.96551545
0.97454212 0.00000000 0.97454212
0.00000000 0.00000000 0.93863346
0.00000000 0.00000000 0.93863346
0.00000000 0.00000000 0.93863346
0.02119729 0.00000000 0.93864153
0.26830825 0.00000000 0.94195317
0.40476094 0.00000000 0.94670529
0.57234860 0.00000000 0.95437495
0.79166550 0.00000000 0.96547372
0.97454212 0.00000000 0.97454212
0.00000000 0.14849968 0.94026437
0.00000000 0.14671285 0.94022063
0.00000000 0.14116257 0.94008813
0.00000000 0.13117305 0.93985492
0.25813679 0.11546165 0.94248022
0.39900241 0.07853785 0.94673706
0.56863654 0.00000000 0.95419177
0.78921570 0.00000000 0.96534759
0.97454212 0.00000000 0.97454212
0.00000000 0.24666356 0.94376702
0.00000000 0.24577590 0.94372760
0.00000000 0.24308627 0.94360775
0.00000000 0.23851120 0.94340353
0.24024104 0.23244167 0.94532013
0.39012577 0.22190023 0.94919968
0.56344701 0.19715910 0.95569484
0.78541813 0.11993143 0.96551344
0.97454212 0.00000000 0.97454212
0.00000000 0.32950928 0.94804059
0.00000000 0.32890688 0.94800660
0.00000000 0.32709001 0.94790184
0.00000000 0.32403210 0.94772686
0.21083945 0.32015491 0.94887016
0.37685663 0.31405197 0.95231925
0.55623127 0.30052064 0.95821252
0.78132634 0.26796277 0.96732273
0.97509713 0.16398218 0.97509713
0.00000000 0.42548830 0.95394479
0.00000000 0.42505705 0.95391704
0.00000000 0.42376001 0.95383389
0.00000000 0.42158695 0.95369515
0.14021188 0.41870359 0.95391780
0.35255738 0.41497198 0.95683942
0.54351486 0.40677837 0.96194413
0.77421415 0.38788745 0.97009769
0.97756146 0.33901960 0.97756146
0.00000000 0.56201843 0.96306646
0.00000000 0.56171627 0.96304591
0.00000000 0.56080989 0.96298649
0.00000000 0.55929578 0.96288835
0.00000000 0.55716386 0.96274457
0.29190543 0.55459976 0.96421824
0.51506274 0.54992642 0.96825255
0.75870301 0.53918795 0.97498204
0.98197251 0.51173856 0.98197251
0.00000000 0.75304158 0.97564592
0.00000000 0.75283249 0.97563247
0.00000000 0.75220486 0.97559217
0.00000000 0.75115739 0.97552495
0.00000000 0.74968805 0.97543082
0.00000000 0.74725011 0.97527516
0.44478014 0.74453347 0.97787286
0.72319920 0.73869399 0.98287296
0.98923734 0.72338841 0.98923734
0.00000000 0.98968657 0.98852199
0.00000000 0.98968665 0.98852814
0.00000000 0.98968688 0.98854658
0.00000000 0.98968727 0.98857732
0.00000000 0.98968781 0.98862035
0.00000000 0.98968870 0.98869152
0.15901790 0.98984271 0.98898676
0.63413166 0.99361553 0.99304172
1.00000000 1.00000000 1.00000000
