proprietary/odm/odm/etc/Custom_LUT_hlg.cube
LUT_3D_SIZE 5
0.00000000 0.00000000 0.00000000
0.19605484 0.00000000 0.01501942
0.36372254 0.00000000 0.02786415
0.60917060 0.00000000 0.04666749
0.96543824 0.00000000 0.08364557
0.00000000 0.18107415 0.00000000
0.18199065 0.17830141 0.00000000
0.35791172 0.16677365 0.00000000
0.60515708 0.10398824 0.03359103
0.96543378 0.00000000 0.07837143
0.00000000 0.33594130 0.00000000
0.09639333 0.33390790 0.00000000
0.33764713 0.33080250 0.00000000
0.59704124 0.31624754 0.00000000
0.96673551 0.20560186 0.05842106
0.00000000 0.56264778 0.00000000
0.00000000 0.56144877 0.00000000
0.24117099 0.55890076 0.00000000
0.56550065 0.55403707 0.00000000
0.97555884 0.51886449 0.00000000
0.00000000 0.98458782 0.00000000
0.00000000 0.98458782 0.00000000
0.00000000 0.98458782 0.00000000
0.33275476 0.98564974 0.00000000
0.99648107 0.99648107 0.00000000
0.00000000 0.00000000 0.16844400
0.19348816 0.00000000 0.17586842
0.36260775 0.00000000 0.18290410
0.60859589 0.00000000 0.19083042
0.96566254 0.00000000 0.20414952
0.00000000 0.18116286 0.17624290
0.17801297 0.17801297 0.17801297
0.35656699 0.16608954 0.18252406
0.60454443 0.10216409 0.18939571
0.96565810 0.00000000 0.20269449
0.00000000 0.33598312 0.17830891
0.08385942 0.33387331 0.17854774
0.33582629 0.33066344 0.18103601
0.59630366 0.31596600 0.18629181
0.96693816 0.20487392 0.19850483
0.00000000 0.56263316 0.16946802
0.00000000 0.56143332 0.16970359
0.23773284 0.55884250 0.17071991
0.56452385 0.55394311 0.17455688
0.97569457 0.51872157 0.18634864
0.00000000 0.98459742 0.06707033
0.00000000 0.98459778 0.06809628
0.00000000 0.98459885 0.07105146
0.33033818 0.98564431 0.07887551
0.99649749 0.99649749 0.10395225
0.00000000 0.00000000 0.31231063
0.18383181 0.00000000 0.31732199
0.35896916 0.00000000 0.32628011
0.60680913 0.00000000 0.33690712
0.96632822 0.00000000 0.35027137
0.00000000 0.18084544 0.31936159
0.16469489 0.17690204 0.32110001
0.35233169 0.16393743 0.32723066
0.60265464 0.09636124 0.33629283
0.96632376 0.00000000 0.34958821
0.00000000 0.33611095 0.32698296
0.00000000 0.33383017 0.32695682
0.33026970 0.33026970 0.33026970
0.59408869 0.31512335 0.33679920
0.96754585 0.20266336 0.34797185
0.00000000 0.56274624 0.33105189
0.00000000 0.56154706 0.33110952
0.22701119 0.55881457 0.33180586
0.56166970 0.55375471 0.33570743
0.97614307 0.51831364 0.34492868
0.00000000 0.98494944 0.31561971
0.00000000 0.98494975 0.31573847
0.00000000 0.98495069 0.31609439
0.32303400 0.98592753 0.31743920
0.99673420 0.99673420 0.32509038
0.00000000 0.00000000 0.52306671
0.14212920 0.00000000 0.52476225
0.34642000 0.00000000 0.53340651
0.60121276 0.00000000 0.54646411
0.96819269 0.00000000 0.56301268
0.00000000 0.17727388 0.52759394
0.10706696 0.17216134 0.52798840
0.33841593 0.15687653 0.53469284
0.59679905 0.07542456 0.54606783
0.96818858 0.00000000 0.56265829
0.00000000 0.33582246 0.53680814
0.00000000 0.33352590 0.53670396
0.31273242 0.32883973 0.54020430
0.58737418 0.31255497 0.54869474
0.96923989 0.19598311 0.56221025
0.00000000 0.56292967 0.54764181
0.00000000 0.56173154 0.54762813
0.19048528 0.55863656 0.54809433
0.55314599 0.55314599 0.55314599
0.97741529 0.51710185 0.56383283
0.00000000 0.98594733 0.55316831
0.00000000 0.98594764 0.55322272
0.00000000 0.98594857 0.55338591
0.30030206 0.98674786 0.55430724
0.99741529 0.99741529 0.56222762
0.00000000 0.00000000 0.93863346
0.00000000 0.00000000 0.93863346
0.27165302 0.00000000 0.94204678
0.57357920 0.00000000 0.95443597
0.97454212 0.00000000 0.97454212
0.00000000 0.14849968 0.94026437
0.00000000 0.14116257 0.94008813
0.25813679 0.11546165 0.94248022
0.56863654 0.00000000 0.95419177
0.97454212 0.00000000 0.97454212
0.00000000 0.32950928 0.94804059
0.00000000 0.32709001 0.94790184
0.21083945 0.32015491 0.94887016
0.55623127 0.30052064 0.95821252
0.97509713 0.16398218 0.97509713
0.00000000 0.56201843 0.96306646
0.00000000 0.56080989 0.96298649
0.00000000 0.55716386 0.96274457
0.51506274 0.54992642 0.96825255
0.98197251 0.51173856 0.98197251
0.00000000 0.98968657 0.98852199
0.00000000 0.98968688 0.98854658
0.00000000 0.98968781 0.98862035
0.15901790 0.98984271 0.98898676
1.00000000 1.00000000 1.00000000
