proprietary/odm/odm/etc/Custom_LUT_hlg.cube
LUT_3D_SIZE 17
0.00000000 0.00000000 0.00000000
0.05801148 0.00000000 0.00444416
0.10570610 0.00000000 0.00809796
0.15170676 0.00000000 0.01162199
0.19605484 0.00000000 0.01501942
0.23920622 0.00000000 0.01832517
0.28142947 0.00000000 0.02155982
0.32289284 0.00000000 0.02473626
0.36372254 0.00000000 0.02786415
0.40875024 0.00000000 0.03131364
0.46365394 0.00000000 0.03551972
0.52989556 0.00000000 0.04059437
0.60917060 0.00000000 0.04666749
0.70344042 0.00000000 0.05388934
0.81500136 0.00000000 0.06243583
0.94655800 0.00000000 0.07251415
0.96543824 0.00000000 0.08364557
0.00000000 0.05287988 0.00000000
0.05296028 0.05188669 0.00000000
0.10403568 0.04847678 0.00000000
0.15044868 0.03988717 0.00628980
0.19491757 0.01284253 0.01184394
0.23830645 0.00000000 0.01599709
0.28069470 0.00000000 0.01971432
0.32227323 0.00000000 0.02320692
0.36318902 0.00000000 0.02655925
0.40828877 0.00000000 0.03019376
0.46325969 0.00000000 0.03456827
0.52956170 0.00000000 0.03979243
0.60888990 0.00000000 0.04599568
0.70320595 0.00000000 0.05332913
0.81480618 0.00000000 0.06197025
0.94639592 0.00000000 0.07212817
0.96543796 0.00000000 0.08332952
0.00000000 0.09762912 0.00000000
0.02801327 0.09703836 0.00000000
0.09810204 0.09611336 0.00000000
0.14738575 0.09389653 0.00000000
0.19291826 0.08989279 0.00000000
0.23661113 0.08357262 0.00000000
0.27911010 0.07399808 0.01166875
0.32071787 0.05880247 0.01746127
0.36161295 0.02382558 0.02197298
0.40689993 0.00000000 0.02642527
0.46207338 0.00000000 0.03146795
0.52855831 0.00000000 0.03723991
0.60804669 0.00000000 0.04389332
0.70250190 0.00000000 0.05159727
0.81421978 0.00000000 0.06054342
0.94590947 0.00000000 0.07095262
0.96543713 0.00000000 0.08237116
0.00000000 0.14011178 0.00000000
0.00000000 0.13969017 0.00000000
0.08426616 0.13898909 0.00000000
0.14081555 0.13796100 0.00000000
0.18884178 0.13609626 0.00000000
0.23374662 0.13318679 0.00000000
0.27692934 0.12903885 0.00000000
0.31897496 0.12342708 0.00000000
0.36016248 0.11600865 0.00583357
0.40544298 0.10486584 0.01754869
0.46052618 0.08435264 0.02508119
0.52688032 0.00000000 0.03234009
0.60663786 0.00000000 0.04003918
0.70132444 0.00000000 0.04851605
0.81323918 0.00000000 0.05805541
0.94509689 0.00000000 0.06893077
0.96543573 0.00000000 0.08073828
0.00000000 0.18107415 0.00000000
0.00000000 0.18076766 0.00000000
0.05195623 0.17997713 0.00000000
0.12929388 0.17937538 0.00000000
0.18199065 0.17830141 0.00000000
0.22903819 0.17661018 0.00000000
0.27342825 0.17419569 0.00000000
0.31621954 0.17095225 0.00000000
0.35791172 0.16677365 0.00000000
0.40358600 0.16082989 0.00000000
0.45900497 0.15125348 0.00000000
0.52563177 0.13505632 0.02294455
0.60515708 0.10398824 0.03359103
0.69967184 0.00000000 0.04367881
0.81186409 0.00000000 0.05430025
0.94395432 0.00000000 0.06595303
0.96543378 0.00000000 0.07837143
0.00000000 0.22093166 0.00000000
0.00000000 0.22069233 0.00000000
0.00000000 0.21997324 0.00000000
0.11016956 0.21936174 0.00000000
0.17156077 0.21865286 0.00000000
0.22205453 0.21755313 0.00000000
0.26830211 0.21596960 0.00000000
0.31224204 0.21383773 0.00000000
0.35469568 0.21108801 0.00000000
0.40096463 0.20720829 0.00000000
0.45688191 0.20107875 0.00000000
0.52392556 0.19123398 0.00000000
0.60378321 0.17485520 0.02101784
0.69844312 0.14522687 0.03611736
0.81021556 0.06827458 0.04887110
0.94248962 0.00000000 0.06182571
0.96543127 0.00000000 0.07517291
0.00000000 0.25993477 0.00000000
0.00000000 0.25973925 0.00000000
0.00000000 0.25915145 0.00000000
0.07458416 0.25836061 0.00000000
0.15633123 0.25785361 0.00000000
0.21228457 0.25707408 0.00000000
0.26125163 0.25595565 0.00000000
0.30682297 0.25444771 0.00000000
0.35035545 0.25249744 0.00000000
0.39745173 0.24974078 0.00000000
0.45407218 0.24539677 0.00000000
0.52168790 0.23849833 0.00000000
0.60200332 0.22737987 0.00000000
0.69702133 0.20890370 0.02154522
0.80908052 0.17578002 0.04084448
0.94091302 0.09591201 0.05620418
0.96542820 0.00000000 0.07098442
0.00000000 0.29823362 0.00000000
0.00000000 0.29806869 0.00000000
0.00000000 0.29757314 0.00000000
0.00000000 0.29674659 0.00000000
0.13379250 0.29621142 0.00000000
0.19902356 0.29562718 0.00000000
0.25193074 0.29479207 0.00000000
0.29974744 0.29367109 0.00000000
0.34472989 0.29221636 0.00000000
0.39292980 0.29015465 0.00000000
0.45048096 0.28690146 0.00000000
0.51885305 0.28174015 0.00000000
0.59977360 0.27349627 0.00000000
0.69526151 0.26014330 0.00000000
0.80768203 0.23781168 0.02669202
0.93979836 0.19724125 0.04836616
0.96560543 0.08974921 0.06555133
0.00000000 0.33594130 0.00000000
0.00000000 0.33579925 0.00000000
0.00000000 0.33537257 0.00000000
0.00000000 0.33465974 0.00000000
0.09639333 0.33390790 0.00000000
0.18109199 0.33344992 0.00000000
0.23988137 0.33279851 0.00000000
0.29075762 0.33192844 0.00000000
0.33764713 0.33080250 0.00000000
0.38727416 0.32920292 0.00000000
0.44601825 0.32667650 0.00000000
0.51535570 0.32265772 0.00000000
0.59704124 0.31624754 0.00000000
0.69312703 0.30595535 0.00000000
0.80600627 0.28917074 0.00000000
0.93847143 0.26073320 0.03613663
0.96673551 0.20560186 0.05842106
0.00000000 0.37753089 0.00000000
0.00000000 0.37740815 0.00000000
0.00000000 0.37703960 0.00000000
0.00000000 0.37642424 0.00000000
0.00000000 0.37556036 0.00000000
0.15247576 0.37506771 0.00000000
0.22230853 0.37455740 0.00000000
0.27803655 0.37387843 0.00000000
0.32776117 0.37300152 0.00000000
0.37944701 0.37175503 0.00000000
0.43987841 0.36978561 0.00000000
0.51057450 0.36664661 0.00000000
0.59333036 0.36163063 0.00000000
0.69024813 0.35359535 0.00000000
0.80376279 0.34063010 0.00000000
0.93670771 0.31932550 0.00000000
0.96811199 0.28057448 0.04691816
0.00000000 0.42823923 0.00000000
0.00000000 0.42813433 0.00000000
0.00000000 0.42781944 0.00000000
0.00000000 0.42729389 0.00000000
0.00000000 0.42655653 0.00000000
0.08516161 0.42573611 0.00000000
0.19198051 0.42533935 0.00000000
0.25743218 0.42481556 0.00000000
0.31215417 0.42414291 0.00000000
0.36726726 0.42319293 0.00000000
0.43041275 0.42168762 0.00000000
0.50325310 0.41928848 0.00000000
0.58768593 0.41544570 0.00000000
0.68589612 0.40928005 0.00000000
0.80039918 0.39936645 0.00000000
0.93409452 0.38331140 0.00000000
0.96996261 0.35437918 0.00674749
0.00000000 0.48942509 0.00000000
0.00000000 0.48933601 0.00000000
0.00000000 0.48906861 0.00000000
0.00000000 0.48862296 0.00000000
0.00000000 0.48799809 0.00000000
0.00000000 0.48719344 0.00000000
0.12771102 0.48649841 0.00000000
0.22165809 0.48609575 0.00000000
0.28658251 0.48558683 0.00000000
0.34786370 0.48486979 0.00000000
0.41558844 0.48373820 0.00000000
0.49190952 0.48193774 0.00000000
0.57900669 0.47904618 0.00000000
0.67925767 0.47439732 0.00000000
0.79530863 0.46691019 0.00000000
0.93017541 0.45484378 0.00000000
0.97240684 0.43266997 0.00000000
0.00000000 0.56264778 0.00000000
0.00000000 0.56257307 0.00000000
0.00000000 0.56234874 0.00000000
0.00000000 0.56197400 0.00000000
0.00000000 0.56144877 0.00000000
0.00000000 0.56077259 0.00000000
0.00000000 0.55994510 0.00000000
0.14474617 0.55928532 0.00000000
0.24117099 0.55890076 0.00000000
0.31563190 0.55836098 0.00000000
0.39180189 0.55752035 0.00000000
0.47405187 0.55618326 0.00000000
0.56550065 0.55403707 0.00000000
0.66900945 0.55058390 0.00000000
0.78751507 0.54500709 0.00000000
0.92422003 0.53600638 0.00000000
0.97555884 0.51886449 0.00000000
0.00000000 0.64971680 0.00000000
0.00000000 0.64965435 0.00000000
0.00000000 0.64946692 0.00000000
0.00000000 0.64915401 0.00000000
0.00000000 0.64871471 0.00000000
0.00000000 0.64814928 0.00000000
0.00000000 0.64745758 0.00000000
0.00000000 0.64663896 0.00000000
0.13282954 0.64591160 0.00000000
0.25658169 0.64550658 0.00000000
0.35182365 0.64487927 0.00000000
0.44522367 0.64388808 0.00000000
0.54415822 0.64231271 0.00000000
0.65301316 0.63977556 0.00000000
0.77545135 0.63567086 0.00000000
0.91508087 0.62902626 0.00000000
0.97951609 0.61583781 0.00000000
0.00000000 0.75275463 0.00000000
0.00000000 0.75270250 0.00000000
0.00000000 0.75254607 0.00000000
0.00000000 0.75228525 0.00000000
0.00000000 0.75191989 0.00000000
0.00000000 0.75144997 0.00000000
0.00000000 0.75087508 0.00000000
0.00000000 0.75019512 0.00000000
0.00000000 0.74940966 0.00000000
0.07003030 0.74844304 0.00000000
0.27640756 0.74797615 0.00000000
0.39631366 0.74724221 0.00000000
0.50954932 0.74608525 0.00000000
0.62765817 0.74423291 0.00000000
0.75657393 0.74123699 0.00000000
0.90091194 0.73638307 0.00000000
0.98434739 0.72643841 0.00000000
0.00000000 0.87426386 0.00000000
0.00000000 0.87422073 0.00000000
0.00000000 0.87409133 0.00000000
0.00000000 0.87387559 0.00000000
0.00000000 0.87357344 0.00000000
0.00000000 0.87318312 0.00000000
0.00000000 0.87270454 0.00000000
0.00000000 0.87214160 0.00000000
0.00000000 0.87149093 0.00000000
0.00000000 0.87065722 0.00000000
0.00000000 0.86947549 0.00000000
0.30162245 0.86879356 0.00000000
0.45038528 0.86794254 0.00000000
0.58640356 0.86658575 0.00000000
0.72659087 0.86441053 0.00000000
0.87870021 0.86088759 0.00000000
0.99008020 0.85371326 0.00000000
0.00000000 0.98458782 0.00000000
0.00000000 0.98458782 0.00000000
0.00000000 0.98458782 0.00000000
0.00000000 0.98458782 0.00000000
0.00000000 0.98458782 0.00000000
0.00000000 0.98458782 0.00000000
0.00000000 0.98458782 0.00000000
0.00000000 0.98458782 0.00000000
0.00000000 0.98458782 0.00000000
0.00000000 0.98458782 0.00000000
0.00000000 0.98458782 0.00000000
0.00000000 0.98458782 0.00000000
0.33275476 0.98564974 0.00000000
0.51478335 0.98750497 0.00000000
0.67699766 0.98994932 0.00000000
0.84283120 0.99310599 0.00000000
0.99648107 0.99648107 0.00000000
0.00000000 0.00000000 0.05165135
0.05689181 0.00000000 0.05171103
0.10540322 0.00000000 0.05316677
0.15149264 0.00000000 0.05466931
0.19590626 0.00000000 0.05601171
0.23909090 0.00000000 0.05729614
0.28133571 0.00000000 0.05858615
0.32281452 0.00000000 0.05991194
0.36365430 0.00000000 0.06129082
0.40869137 0.00000000 0.06290548
0.46360324 0.00000000 0.06501594
0.52985271 0.00000000 0.06777070
0.60913490 0.00000000 0.07135835
0.70341002 0.00000000 0.07600415
0.81497596 0.00000000 0.08196837
0.94653696 0.00000000 0.08954103
0.96545269 0.00000000 0.09818929
0.00000000 0.05266441 0.05123417
0.05181480 0.05181480 0.05181480
0.10363016 0.04827111 0.05304753
0.15023190 0.03955658 0.05432175
0.19476326 0.01081842 0.05556030
0.23819123 0.00000000 0.05684943
0.28060100 0.00000000 0.05814605
0.32219495 0.00000000 0.05947854
0.36312080 0.00000000 0.06086486
0.40822991 0.00000000 0.06248839
0.46320911 0.00000000 0.06461081
0.52951885 0.00000000 0.06738116
0.60885388 0.00000000 0.07098855
0.70317555 0.00000000 0.07565845
0.81478079 0.00000000 0.08165050
0.94637488 0.00000000 0.08925376
0.96545242 0.00000000 0.09793697
0.00000000 0.09764103 0.05181887
0.02437057 0.09702767 0.05188816
0.09756717 0.09606722 0.05259615
0.14710877 0.09382903 0.05353857
0.19273601 0.08980017 0.05458890
0.23648085 0.08345555 0.05572040
0.27900788 0.07384512 0.05692641
0.32063360 0.05857669 0.05820809
0.36154141 0.02296722 0.05956681
0.40684113 0.00000000 0.06121388
0.46202311 0.00000000 0.06337400
0.52851549 0.00000000 0.06619362
0.60801068 0.00000000 0.06986308
0.70247150 0.00000000 0.07460805
0.81419487 0.00000000 0.08068644
0.94588843 0.00000000 0.08838416
0.96545158 0.00000000 0.09717451
0.00000000 0.14011062 0.05062680
0.00000000 0.13968968 0.05068812
0.08352834 0.13897038 0.05107401
0.14047364 0.13792993 0.05179634
0.18862646 0.13605603 0.05269662
0.23359225 0.13313628 0.05373348
0.27681244 0.12897947 0.05488688
0.31888155 0.12335757 0.05614726
0.36008627 0.11592748 0.05750489
0.40537822 0.10476579 0.05913225
0.46047287 0.08420875 0.06129422
0.52683741 0.00000000 0.06414683
0.60660169 0.00000000 0.06792980
0.70129448 0.00000000 0.07281042
0.81321442 0.00000000 0.07904308
0.94507662 0.00000000 0.08690787
0.96545019 0.00000000 0.09588480
0.00000000 0.18106631 0.04778537
0.00000000 0.18076013 0.04786001
0.05038417 0.17995933 0.04811514
0.12887525 0.17935456 0.04873935
0.18173816 0.17827474 0.04956164
0.22885985 0.17657861 0.05055189
0.27329364 0.17416036 0.05169074
0.31611259 0.17091244 0.05296064
0.35782362 0.16672903 0.05434927
0.40351453 0.16078011 0.05603042
0.45894801 0.15119556 0.05827721
0.52558511 0.13498319 0.06125035
0.60511929 0.10387574 0.06514225
0.69964167 0.00000000 0.07018572
0.81183919 0.00000000 0.07665974
0.94393406 0.00000000 0.08478037
0.96544824 0.00000000 0.09403733
0.00000000 0.22091807 0.04291720
0.00000000 0.22067863 0.04300978
0.00000000 0.21995942 0.04328580
0.10961533 0.21933979 0.04385677
0.17126683 0.21862907 0.04468481
0.22185267 0.21752762 0.04570786
0.26814970 0.21594224 0.04690321
0.31212086 0.21380839 0.04825344
0.35459671 0.21105691 0.04974052
0.40088339 0.20717476 0.05154912
0.45681656 0.20104179 0.05396877
0.52387458 0.19119205 0.05716718
0.60374362 0.17480434 0.06133423
0.69841035 0.14515578 0.06668376
0.81018957 0.06805710 0.07344718
0.94246856 0.00000000 0.08193187
0.96544573 0.00000000 0.09158467
0.00000000 0.25991521 0.03483264
0.00000000 0.25971980 0.03496217
0.00000000 0.25913232 0.03534659
0.07358942 0.25833550 0.03599985
0.15598079 0.25782839 0.03697838
0.21205668 0.25704872 0.03818863
0.26108188 0.25593003 0.03960262
0.30668834 0.25442170 0.04119418
0.35024485 0.25247099 0.04293760
0.39736035 0.24971350 0.04504095
0.45399824 0.24536826 0.04782664
0.52162957 0.23846787 0.05145929
0.60195919 0.22734623 0.05611860
0.69698816 0.20886349 0.06199879
0.80905360 0.17572469 0.06930763
0.94089175 0.09577428 0.07827032
0.96544267 0.00000000 0.08845616
0.00000000 0.29820896 0.01725641
0.00000000 0.29804411 0.01761007
0.00000000 0.29754879 0.01861535
0.00000000 0.29672259 0.02013870
0.13334367 0.29618291 0.02207778
0.19876406 0.29559945 0.02429648
0.25174285 0.29476506 0.02669610
0.29959950 0.29364473 0.02921750
0.34460815 0.29219046 0.03181973
0.39282884 0.29012911 0.03479452
0.45039869 0.28687613 0.03853301
0.51878723 0.28171448 0.04316274
0.59972284 0.27346975 0.04882346
0.69522366 0.26011434 0.05567076
0.80765466 0.23777728 0.06388242
0.93977609 0.19719287 0.07366391
0.96561913 0.08959737 0.08456246
0.00000000 0.33591849 0.00000000
0.00000000 0.33577641 0.00000000
0.00000000 0.33534969 0.00000000
0.00000000 0.33463680 0.00000000
0.09567054 0.33388047 0.00000000
0.18079037 0.33342278 0.00000000
0.23967510 0.33277153 0.00000000
0.29059792 0.33190183 0.00000000
0.33751583 0.33077612 0.00000000
0.38716410 0.32917660 0.00000000
0.44592783 0.32665133 0.01979631
0.51528258 0.32263347 0.02901744
0.59698360 0.31622382 0.03767412
0.69308334 0.30593136 0.04672322
0.80597567 0.28914517 0.05663332
0.93844899 0.26070188 0.06775760
0.96674816 0.20555649 0.07980402
0.00000000 0.37751117 0.00000000
0.00000000 0.37738843 0.00000000
0.00000000 0.37701985 0.00000000
0.00000000 0.37640445 0.00000000
0.00000000 0.37554050 0.00000000
0.15208784 0.37504410 0.00000000
0.22207728 0.37453401 0.00000000
0.27786543 0.37385521 0.00000000
0.32762356 0.37297846 0.00000000
0.37933350 0.37173226 0.00000000
0.43978450 0.36976285 0.00000000
0.51049671 0.36662379 0.00000000
0.59326610 0.36160772 0.00000000
0.69019771 0.35357333 0.02928285
0.80372580 0.34060850 0.04476304
0.93668313 0.31930263 0.05890738
0.96812461 0.28054694 0.07302944
0.00000000 0.42822238 0.00000000
0.00000000 0.42811748 0.00000000
0.00000000 0.42780257 0.00000000
0.00000000 0.42727699 0.00000000
0.00000000 0.42653956 0.00000000
0.08426872 0.42571592 0.00000000
0.19169347 0.42531923 0.00000000
0.25723999 0.42479562 0.00000000
0.31200590 0.42412311 0.00000000
0.36714774 0.42317324 0.00000000
0.43031572 0.42166816 0.00000000
0.50317373 0.41926907 0.00000000
0.58762071 0.41542624 0.00000000
0.68584245 0.40926042 0.00000000
0.80035501 0.39934635 0.00000000
0.93406288 0.38329216 0.04142038
0.96997425 0.35436083 0.06143861
0.00000000 0.48941078 0.00000000
0.00000000 0.48932169 0.00000000
0.00000000 0.48905430 0.00000000
0.00000000 0.48860863 0.00000000
0.00000000 0.48798374 0.00000000
0.00000000 0.48717910 0.00000000
0.12719552 0.48648121 0.00000000
0.22141834 0.48607858 0.00000000
0.28641379 0.48556986 0.00000000
0.34773380 0.48485299 0.00000000
0.41548589 0.48372153 0.00000000
0.49182731 0.48192125 0.00000000
0.57894000 0.47902971 0.00000000
0.67920323 0.47438085 0.00000000
0.79526401 0.46689355 0.00000000
0.93013857 0.45482658 0.00000000
0.97240918 0.43265382 0.03519719
0.00000000 0.56263578 0.00000000
0.00000000 0.56256106 0.00000000
0.00000000 0.56233670 0.00000000
0.00000000 0.56196195 0.00000000
0.00000000 0.56143671 0.00000000
0.00000000 0.56076052 0.00000000
0.00000000 0.55993301 0.00000000
0.14430434 0.55927088 0.00000000
0.24095358 0.55888636 0.00000000
0.31548152 0.55834668 0.00000000
0.39168966 0.55750625 0.00000000
0.47396482 0.55616932 0.00000000
0.56543147 0.55402314 0.00000000
0.66895370 0.55057002 0.00000000
0.78746971 0.54499318 0.00000000
0.92418302 0.53599238 0.00000000
0.97555830 0.51885077 0.00000000
0.00000000 0.64970677 0.00000000
0.00000000 0.64964431 0.00000000
0.00000000 0.64945688 0.00000000
0.00000000 0.64914394 0.00000000
0.00000000 0.64870462 0.00000000
0.00000000 0.64813918 0.00000000
0.00000000 0.64744747 0.00000000
0.00000000 0.64662884 0.00000000
0.13232021 0.64589946 0.00000000
0.25637822 0.64549470 0.00000000
0.35169174 0.64486736 0.00000000
0.44512777 0.64387626 0.00000000
0.54408478 0.64230096 0.00000000
0.65295539 0.63976400 0.00000000
0.77540497 0.63565927 0.00000000
0.91504335 0.62901470 0.00000000
0.97951560 0.61582683 0.00000000
0.00000000 0.75274626 0.00000000
0.00000000 0.75269412 0.00000000
0.00000000 0.75253769 0.00000000
0.00000000 0.75227687 0.00000000
0.00000000 0.75191150 0.00000000
0.00000000 0.75144158 0.00000000
0.00000000 0.75086668 0.00000000
0.00000000 0.75018671 0.00000000
0.00000000 0.74940124 0.00000000
0.06874197 0.74843297 0.00000000
0.27622018 0.74796622 0.00000000
0.39619951 0.74723226 0.00000000
0.50946802 0.74607525 0.00000000
0.62759669 0.74422318 0.00000000
0.75652579 0.74122733 0.00000000
0.90087347 0.73637343 0.00000000
0.98434696 0.72642952 0.00000000
0.00000000 0.87425693 0.00000000
0.00000000 0.87421380 0.00000000
0.00000000 0.87408440 0.00000000
0.00000000 0.87386866 0.00000000
0.00000000 0.87356650 0.00000000
0.00000000 0.87317613 0.00000000
0.00000000 0.87269754 0.00000000
0.00000000 0.87213465 0.00000000
0.00000000 0.87148393 0.00000000
0.00000000 0.87065026 0.00000000
0.00000000 0.86946847 0.00000000
0.30145278 0.86878510 0.00000000
0.45028773 0.86793442 0.00000000
0.58633521 0.86657741 0.00000000
0.72653966 0.86440251 0.00000000
0.87866016 0.86087948 0.00000000
0.99007983 0.85370601 0.00000000
0.00000000 0.98458782 0.00000000
0.00000000 0.98458782 0.00000000
0.00000000 0.98458782 0.00000000
0.00000000 0.98458782 0.00000000
0.00000000 0.98458782 0.00000000
0.00000000 0.98458782 0.00000000
0.00000000 0.98458782 0.00000000
0.00000000 0.98458782 0.00000000
0.00000000 0.98458782 0.00000000
0.00000000 0.98458782 0.00000000
0.00000000 0.98458782 0.00000000
0.00000000 0.98458782 0.00000000
0.33260418 0.98564862 0.00000000
0.51470087 0.98750387 0.00000000
0.67694087 0.98994837 0.00000000
0.84278878 0.99310505 0.00000000
0.99648107 0.99648107 0.00000000
0.00000000 0.00000000 0.09203224
0.05344618 0.00000000 0.09225633
0.10434328 0.00000000 0.09484140
0.15086596 0.00000000 0.09688484
0.19544783 0.00000000 0.09858645
0.23873551 0.00000000 0.10007091
0.28104899 0.00000000 0.10142246
0.32257613 0.00000000 0.10269183
0.36344731 0.00000000 0.10391350
0.40851352 0.00000000 0.10525263
0.46345017 0.00000000 0.10689923
0.52972469 0.00000000 0.10893737
0.60902762 0.00000000 0.11148842
0.70331864 0.00000000 0.11471838
0.81489965 0.00000000 0.11885029
0.94647399 0.00000000 0.12417151
0.96549597 0.00000000 0.12992012
0.00000000 0.05263870 0.09295661
0.04790705 0.05145791 0.09340275
0.10238111 0.04763720 0.09508721
0.14954356 0.03852559 0.09681130
0.19428848 0.00000000 0.09835303
0.23783591 0.00000000 0.09984976
0.28031437 0.00000000 0.10120662
0.32195665 0.00000000 0.10247925
0.36291386 0.00000000 0.10370357
0.40805183 0.00000000 0.10504471
0.46305607 0.00000000 0.10669369
0.52939029 0.00000000 0.10873425
0.60874658 0.00000000 0.11128859
0.70308413 0.00000000 0.11452291
0.81470448 0.00000000 0.11866052
0.94631184 0.00000000 0.12398919
0.96549569 0.00000000 0.12974975
0.00000000 0.09765042 0.09499846
0.00000000 0.09699235 0.09499534
0.09596012 0.09596012 0.09596012
0.14626975 0.09362524 0.09714888
0.19219101 0.08952292 0.09838119
0.23608444 0.08310072 0.09959291
0.27869671 0.07338181 0.10077282
0.32037912 0.05789085 0.10193044
0.36132649 0.02007043 0.10307595
0.40666316 0.00000000 0.10441787
0.46187092 0.00000000 0.10607388
0.52838640 0.00000000 0.10812208
0.60790238 0.00000000 0.11068617
0.70238010 0.00000000 0.11393379
0.81411857 0.00000000 0.11808873
0.94582523 0.00000000 0.12344004
0.96549486 0.00000000 0.12923674
0.00000000 0.14014194 0.09602392
0.00000000 0.13971871 0.09603443
0.08126612 0.13894026 0.09641267
0.13946637 0.13786420 0.09723488
0.18799558 0.13594839 0.09818175
0.23314339 0.13299341 0.09918961
0.27647081 0.12880551 0.10022796
0.31860426 0.12314982 0.10128553
0.35985598 0.11568282 0.10235880
0.40518598 0.10446521 0.10357976
0.46031277 0.08377474 0.10512751
0.52670823 0.00000000 0.10709161
0.60649333 0.00000000 0.10967257
0.70120440 0.00000000 0.11294266
0.81313998 0.00000000 0.11712718
0.94501369 0.00000000 0.12251731
0.96549347 0.00000000 0.12837535
0.00000000 0.18109119 0.09610653
0.00000000 0.18078568 0.09612692
0.04519944 0.17995456 0.09623555
0.12763508 0.17933285 0.09683614
0.18100756 0.17822483 0.09757690
0.22835480 0.17650823 0.09841635
0.27291413 0.17407029 0.09932401
0.31581087 0.17080348 0.10027985
0.35757363 0.16660183 0.10127610
0.40330699 0.16063340 0.10243478
0.45877662 0.15102142 0.10392802
0.52544556 0.13476353 0.10584789
0.60500560 0.10353708 0.10832027
0.69955121 0.00000000 0.11153460
0.81176439 0.00000000 0.11576228
0.94387318 0.00000000 0.12120895
0.96549152 0.00000000 0.12715564
0.00000000 0.22094326 0.09539137
0.00000000 0.22070419 0.09541621
0.00000000 0.21998480 0.09549042
0.10795610 0.21933184 0.09585492
0.17041999 0.21860864 0.09645980
0.22128472 0.21748983 0.09717409
0.26772960 0.21589083 0.09797323
0.31179057 0.21374347 0.09884210
0.35432885 0.21098107 0.09976892
0.40066238 0.20708595 0.10086790
0.45663532 0.20093740 0.10230697
0.52372649 0.19106796 0.10418720
0.60362411 0.17465142 0.10663652
0.69831184 0.14494214 0.10982879
0.81011150 0.06739866 0.11399153
0.94240491 0.00000000 0.11949795
0.96548903 0.00000000 0.12556297
0.00000000 0.25993527 0.09392358
0.00000000 0.25974006 0.09395197
0.00000000 0.25915322 0.09403694
0.07050560 0.25833459 0.09423753
0.15496250 0.25781904 0.09475295
0.21141655 0.25702819 0.09537837
0.26061913 0.25589982 0.09609715
0.30632966 0.25438169 0.09689708
0.34995557 0.25242253 0.09776717
0.39712294 0.24965483 0.09881544
0.45380579 0.24529865 0.10021085
0.52147412 0.23838540 0.10205836
0.60183546 0.22724853 0.10449375
0.69688849 0.20874275 0.10769584
0.80897272 0.17555850 0.11189639
0.94082788 0.09535937 0.11738777
0.96548597 0.00000000 0.12357715
0.00000000 0.29822764 0.09169668
0.00000000 0.29806293 0.09172810
0.00000000 0.29756801 0.09182221
0.00000000 0.29674058 0.09197847
0.13202140 0.29618020 0.09238424
0.19803153 0.29558906 0.09295100
0.25123220 0.29474761 0.09361380
0.29920876 0.29361831 0.09436448
0.34429569 0.29215785 0.09519335
0.39257564 0.29008936 0.09620540
0.45019604 0.28682833 0.09757061
0.51862393 0.28165606 0.09939905
0.59959361 0.27340072 0.10183587
0.69511994 0.26003113 0.10506553
0.80757311 0.23767419 0.10932645
0.93970923 0.19704760 0.11491373
0.96566014 0.08913959 0.12119347
0.00000000 0.33592791 0.08865503
0.00000000 0.33578579 0.08868963
0.00000000 0.33535891 0.08879326
0.00000000 0.33464669 0.08896567
0.09347711 0.33387625 0.08926741
0.17992063 0.33341405 0.08979835
0.23910438 0.33275946 0.09042692
0.29017202 0.33188362 0.09114710
0.33717840 0.33075273 0.09195160
0.38689452 0.32914941 0.09294428
0.44571120 0.32661593 0.09429720
0.51511196 0.32259127 0.09612784
