proprietary/odm/odm/etc/hdr3dlut_pq_qcom_grid_out_rgb.cube
LUT_3D_SIZE 17
0.00000000 0.00000000 0.00000000
0.02440685 0.00000000 0.00186977
0.05114099 0.00000000 0.00391782
0.08439845 0.00000000 0.00646562
0.12583248 0.00000000 0.00963981
0.17732397 0.00000000 0.01358448
0.24119836 0.00000000 0.01847778
0.32279026 0.00000000 0.02454340
0.42546933 0.00000000 0.03206696
0.52701131 0.00000000 0.04141598
0.64553672 0.00000000 0.05306496
0.80909663 0.00000000 0.06763870
0.93619332 0.00000000 0.08596105
0.98186254 0.00000000 0.10913866
1.00000000 0.00000000 0.13867759
1.00000000 0.00000000 0.15423744
1.00000000 0.00000000 0.15423744
0.00000000 0.02224786 0.00000000
0.02212338 0.02167491 0.00000000
0.05037473 0.01849370 0.00000000
0.08402126 0.00000000 0.00539076
0.12561725 0.00000000 0.00907197
0.17719091 0.00000000 0.01324153
0.24111189 0.00000000 0.01825693
0.32272515 0.00000000 0.02439559
0.42543716 0.00000000 0.03196551
0.52698748 0.00000000 0.04134515
0.64552114 0.00000000 0.05301492
0.80908759 0.00000000 0.06760308
0.93619064 0.00000000 0.08593559
0.98186254 0.00000000 0.10912044
1.00000000 0.00000000 0.13866456
1.00000000 0.00000000 0.15422621
1.00000000 0.00000000 0.15422621
0.00000000 0.04661714 0.00000000
0.00000000 0.04641679 0.00000000
0.04635632 0.04541660 0.00000000
0.08213682 0.04243421 0.00000000
0.12455462 0.03413160 0.00492694
0.17653661 0.00000000 0.01134286
0.24068737 0.00000000 0.01711552
0.32240570 0.00000000 0.02365212
0.42527944 0.00000000 0.03146152
0.52687060 0.00000000 0.04099540
0.64544477 0.00000000 0.05276864
0.80904325 0.00000000 0.06742810
0.93617753 0.00000000 0.08581063
0.98186254 0.00000000 0.10903104
1.00000000 0.00000000 0.13860065
1.00000000 0.00000000 0.15417115
1.00000000 0.00000000 0.15417115
0.00000000 0.07693271 0.00000000
0.00000000 0.07683356 0.00000000
0.03101421 0.07634490 0.00000000
0.07650227 0.07495145 0.00000000
0.12150660 0.07160239 0.00000000
0.17468448 0.06385383 0.00000000
0.23949195 0.04285072 0.01314043
0.32150805 0.00000000 0.02137033
0.42483695 0.00000000 0.02998492
0.52654287 0.00000000 0.03999219
0.64523065 0.00000000 0.05206968
0.80891898 0.00000000 0.06693425
0.93614077 0.00000000 0.08545904
0.98186254 0.00000000 0.10877992
1.00000000 0.00000000 0.13842132
1.00000000 0.00000000 0.15401668
1.00000000 0.00000000 0.15401668
0.00000000 0.11470155 0.00000000
0.00000000 0.11464490 0.00000000
0.00000000 0.11436662 0.00000000
0.06063903 0.11358159 0.00000000
0.11405979 0.11174762 0.00000000
0.17031922 0.10780574 0.00000000
0.23671186 0.09948762 0.00000000
0.31943117 0.08055379 0.01406283
0.42381736 0.00000000 0.02613244
0.52578840 0.00000000 0.03754120
0.64473806 0.00000000 0.05041102
0.80863320 0.00000000 0.06577925
0.93605627 0.00000000 0.08464308
0.98186254 0.00000000 0.10819959
1.00000000 0.00000000 0.13800785
1.00000000 0.00000000 0.15366078
1.00000000 0.00000000 0.15366078
0.00000000 0.16163819 0.00000000
0.00000000 0.16160315 0.00000000
0.00000000 0.16143123 0.00000000
0.00000000 0.16094801 0.00000000
0.09594284 0.15982946 0.00000000
0.16073381 0.15747549 0.00000000
0.23079916 0.15274437 0.00000000
0.31506516 0.14329786 0.00000000
0.42169305 0.12339455 0.01306819
0.52421979 0.06653743 0.03157833
0.64371541 0.00000000 0.04670478
0.80804042 0.00000000 0.06329022
0.93588110 0.00000000 0.08291581
0.98186254 0.00000000 0.10698265
1.00000000 0.00000000 0.13714530
1.00000000 0.00000000 0.15291942
1.00000000 0.00000000 0.15291942
0.00000000 0.21986237 0.00000000
0.00000000 0.21983959 0.00000000
0.00000000 0.21972789 0.00000000
0.00000000 0.21941441 0.00000000
0.00000000 0.21869143 0.00000000
0.13932216 0.21718216 0.00000000
0.21863222 0.21420020 0.00000000
0.30631087 0.20846155 0.00000000
0.41751276 0.19740024 0.00000000
0.52114620 0.17507628 0.00000000
0.64171742 0.12059477 0.03796771
0.80688435 0.00000000 0.05800350
0.93553986 0.00000000 0.07939927
0.98186254 0.00000000 0.10455555
1.00000000 0.00000000 0.13544346
1.00000000 0.00000000 0.15146113
1.00000000 0.00000000 0.15146113
0.00000000 0.29203556 0.00000000
0.00000000 0.29202025 0.00000000
0.00000000 0.29194520 0.00000000
0.00000000 0.29173472 0.00000000
0.00000000 0.29125008 0.00000000
0.07613107 0.29024196 0.00000000
0.19289764 0.28826464 0.00000000
0.29040160 0.28451470 0.00000000
0.40920668 0.27750158 0.00000000
0.51532869 0.26428650 0.00000000
0.63795712 0.23828668 0.00000000
0.80471597 0.17890518 0.04570594
0.93490119 0.00000000 0.07216122
0.98186254 0.00000000 0.09979127
1.00000000 0.00000000 0.13217764
1.00000000 0.00000000 0.14867969
1.00000000 0.00000000 0.14867969
0.00000000 0.39051847 0.00000000
0.00000000 0.39050693 0.00000000
0.00000000 0.39045036 0.00000000
0.00000000 0.39029175 0.00000000
0.00000000 0.38992680 0.00000000
0.00000000 0.38916887 0.00000000
0.12623835 0.38768697 0.00000000
0.25913592 0.38489397 0.00000000
0.38817771 0.37973313 0.00000000
0.50449090 0.37024087 0.00000000
0.63102801 0.35253515 0.00000000
0.80074575 0.31786531 0.00000000
0.93373644 0.24722538 0.05540562
0.98186254 0.00000000 0.09018370
1.00000000 0.00000000 0.12592069
1.00000000 0.00000000 0.14341790
1.00000000 0.00000000 0.14341790
0.00000000 0.48654084 0.00000000
0.00000000 0.48653467 0.00000000
0.00000000 0.48650443 0.00000000
0.00000000 0.48641967 0.00000000
0.00000000 0.48622473 0.00000000
0.00000000 0.48582035 0.00000000
0.00000000 0.48503153 0.00000000
0.18356628 0.48355140 0.00000000
0.34592267 0.48083937 0.00000000
0.48423054 0.47593021 0.00000000
0.61835055 0.46705601 0.00000000
0.79356882 0.45081096 0.00000000
0.93164629 0.42000671 0.00000000
0.98186254 0.33234156 0.06799214
1.00000000 0.00000000 0.11347858
1.00000000 0.00000000 0.13325624
1.00000000 0.00000000 0.13325624
0.00000000 0.59768060 0.00000000
0.00000000 0.59767659 0.00000000
0.00000000 0.59765690 0.00000000
0.00000000 0.59760173 0.00000000
0.00000000 0.59747488 0.00000000
0.00000000 0.59721183 0.00000000
0.00000000 0.59669911 0.00000000
0.00000000 0.59573856 0.00000000
0.25222840 0.59398361 0.00000000
0.44509578 0.59082372 0.00000000
0.59495477 0.58516765 0.00000000
0.78062803 0.57500679 0.00000000
0.92792772 0.55646781 0.00000000
0.98186254 0.51809835 0.00000000
1.00000000 0.43230963 0.08484230
1.00000000 0.33609762 0.11195443
1.00000000 0.33609762 0.11195443
0.00000000 0.75676286 0.00000000
0.00000000 0.75675920 0.00000000
0.00000000 0.75674128 0.00000000
0.00000000 0.75669105 0.00000000
0.00000000 0.75657557 0.00000000
0.00000000 0.75633613 0.00000000
0.00000000 0.75586957 0.00000000
0.00000000 0.75499586 0.00000000
0.00000000 0.75340108 0.00000000
0.33977007 0.75053427 0.00000000
0.55024529 0.74541820 0.00000000
0.75231569 0.73627828 0.00000000
0.92097543 0.71977822 0.00000000
0.98186254 0.68923348 0.00000000
1.00000000 0.63307700 0.00000000
1.00000000 0.59860030 0.04012012
1.00000000 0.59860030 0.04012012
0.00000000 0.90117961 0.00000000
0.00000000 0.90117838 0.00000000
0.00000000 0.90117235 0.00000000
0.00000000 0.90115543 0.00000000
0.00000000 0.90111653 0.00000000
0.00000000 0.90103590 0.00000000
0.00000000 0.90087887 0.00000000
0.00000000 0.90058508 0.00000000
0.00000000 0.90004968 0.00000000
0.00000000 0.89909008 0.00000000
0.44062851 0.89738681 0.00000000
0.67931971 0.89437335 0.00000000
0.89852192 0.88902963 0.00000000
0.98186254 0.87519578 0.00000000
0.99820738 0.84803633 0.00000000
1.00000000 0.82620741 0.00000000
1.00000000 0.82620741 0.00000000
0.00000000 0.97670704 0.00000000
0.00000000 0.97670671 0.00000000
0.00000000 0.97670510 0.00000000
0.00000000 0.97670058 0.00000000
0.00000000 0.97669018 0.00000000
0.00000000 0.97666863 0.00000000
0.00000000 0.97662667 0.00000000
0.00000000 0.97654818 0.00000000
0.00000000 0.97640522 0.00000000
0.00000000 0.97614921 0.00000000
0.00000000 0.97569551 0.00000000
0.54476643 0.97489506 0.00000000
0.83733466 0.97348263 0.00000000
0.97544867 0.97097833 0.00000000
0.98931556 0.96661187 0.00000000
1.00000000 0.96123608 0.00000000
1.00000000 0.96123608 0.00000000
0.00000000 0.98186254 0.00000000
0.00000000 0.98186254 0.00000000
0.00000000 0.98186254 0.00000000
0.00000000 0.98186254 0.00000000
0.00000000 0.98186254 0.00000000
0.00000000 0.98186254 0.00000000
0.00000000 0.98186254 0.00000000
0.00000000 0.98186254 0.00000000
0.00000000 0.98186254 0.00000000
0.00000000 0.98186254 0.00000000
0.00000000 0.98186254 0.00000000
0.00000000 0.98186254 0.00000000
0.66688266 0.98186254 0.00000000
0.94925786 0.98186254 0.00000000
0.98186254 0.98186254 0.00000000
1.00000000 0.98185629 0.00000000
1.00000000 0.98185629 0.00000000
0.00000000 1.00000000 0.00000000
0.00000000 1.00000000 0.00000000
0.00000000 1.00000000 0.00000000
0.00000000 1.00000000 0.00000000
0.00000000 1.00000000 0.00000000
0.00000000 1.00000000 0.00000000
0.00000000 1.00000000 0.00000000
0.00000000 1.00000000 0.00000000
0.00000000 1.00000000 0.00000000
0.00000000 1.00000000 0.00000000
0.00000000 1.00000000 0.00000000
0.00000000 1.00000000 0.00000000
0.49503431 1.00000000 0.00000000
0.92605157 1.00000000 0.00000000
0.98185629 1.00000000 0.00000000
1.00000000 1.00000000 0.00000000
1.00000000 1.00000000 0.00000000
0.00000000 1.00000000 0.00000000
0.00000000 1.00000000 0.00000000
0.00000000 1.00000000 0.00000000
0.00000000 1.00000000 0.00000000
0.00000000 1.00000000 0.00000000
0.00000000 1.00000000 0.00000000
0.00000000 1.00000000 0.00000000
0.00000000 1.00000000 0.00000000
0.00000000 1.00000000 0.00000000
0.00000000 1.00000000 0.00000000
0.00000000 1.00000000 0.00000000
0.00000000 1.00000000 0.00000000
0.49503431 1.00000000 0.00000000
0.92605157 1.00000000 0.00000000
0.98185629 1.00000000 0.00000000
1.00000000 1.00000000 0.00000000
1.00000000 1.00000000 0.00000000
0.00000000 0.00000000 0.02173099
0.02393578 0.00000000 0.02175610
0.05097563 0.00000000 0.02187860
0.08431658 0.00000000 0.02221692
0.12578569 0.00000000 0.02296847
0.17729503 0.00000000 0.02442544
0.24117955 0.00000000 0.02695870
0.32277609 0.00000000 0.03096416
0.42546233 0.00000000 0.03681667
0.52700613 0.00000000 0.04488143
0.64553333 0.00000000 0.05557575
0.80909466 0.00000000 0.06945173
0.93619274 0.00000000 0.08726767
0.98186254 0.00000000 0.11007838
1.00000000 0.00000000 0.13935133
1.00000000 0.00000000 0.15481842
1.00000000 0.00000000 0.15481842
0.00000000 0.02215721 0.02155547
0.02158086 0.02158086 0.02158086
0.05020583 0.01837609 0.02170475
0.08393887 0.00000000 0.02204680
0.12557035 0.00000000 0.02280616
0.17716194 0.00000000 0.02427662
0.24109307 0.00000000 0.02682920
0.32271098 0.00000000 0.03085759
0.42543017 0.00000000 0.03673310
0.52698229 0.00000000 0.04481814
0.64551775 0.00000000 0.05552885
0.80908562 0.00000000 0.06941741
0.93619006 0.00000000 0.08724275
0.98186254 0.00000000 0.11006037
1.00000000 0.00000000 0.13933838
1.00000000 0.00000000 0.15480725
1.00000000 0.00000000 0.15480725
0.00000000 0.04658504 0.02066448
0.00000000 0.04638449 0.02069142
0.04616647 0.04538330 0.02082277
0.08205177 0.04239758 0.02118487
0.12450716 0.03408190 0.02198597
0.17650749 0.00000000 0.02352785
0.24066850 0.00000000 0.02618131
0.32239152 0.00000000 0.03032755
0.42527244 0.00000000 0.03631956
0.52686542 0.00000000 0.04450607
0.64544138 0.00000000 0.05529811
0.80904128 0.00000000 0.06924881
0.93617695 0.00000000 0.08712040
0.98186254 0.00000000 0.10997204
1.00000000 0.00000000 0.13927491
1.00000000 0.00000000 0.15475248
1.00000000 0.00000000 0.15475248
0.00000000 0.07691679 0.01782323
0.00000000 0.07681762 0.01785635
0.03067939 0.07632881 0.01801750
0.07640831 0.07493494 0.01845873
0.12145746 0.07158479 0.01942073
0.17465493 0.06383317 0.02122695
0.23947295 0.04281459 0.02423353
0.32149380 0.00000000 0.02876809
0.42482994 0.00000000 0.03512386
0.52653767 0.00000000 0.04361468
0.64522725 0.00000000 0.05464415
0.80891701 0.00000000 0.06877320
0.93614019 0.00000000 0.08677623
0.98186254 0.00000000 0.10972394
1.00000000 0.00000000 0.13909679
1.00000000 0.00000000 0.15459882
1.00000000 0.00000000 0.15459882
0.00000000 0.11469245 0.00351778
0.00000000 0.11463579 0.00382088
0.00000000 0.11435748 0.00497271
0.06050886 0.11357236 0.00705297
0.11400610 0.11173818 0.00998833
0.17028860 0.10779582 0.01380310
0.23669255 0.09947651 0.01862073
0.31941679 0.08053887 0.02463972
0.42381032 0.00000000 0.03213330
0.52578320 0.00000000 0.04146238
0.64473467 0.00000000 0.05309776
0.80863123 0.00000000 0.06766206
0.93605569 0.00000000 0.08597775
0.98186254 0.00000000 0.10915062
1.00000000 0.00000000 0.13868614
1.00000000 0.00000000 0.15424481
1.00000000 0.00000000 0.15424481
0.00000000 0.16163256 0.00000000
0.00000000 0.16159752 0.00000000
0.00000000 0.16142559 0.00000000
0.00000000 0.16094235 0.00000000
0.09587444 0.15982374 0.00000000
0.16070061 0.15746965 0.00000000
0.23077915 0.15273828 0.00000000
0.31505051 0.14329120 0.00797206
0.42168596 0.12338634 0.02420296
0.52421457 0.06651792 0.03641517
0.64371200 0.00000000 0.04967378
0.80803845 0.00000000 0.06527377
0.93588052 0.00000000 0.08428881
0.98186254 0.00000000 0.10794870
1.00000000 0.00000000 0.13782953
1.00000000 0.00000000 0.15350740
1.00000000 0.00000000 0.15350740
0.00000000 0.21985871 0.00000000
0.00000000 0.21983593 0.00000000
0.00000000 0.21972423 0.00000000
0.00000000 0.21941074 0.00000000
0.00000000 0.21868774 0.00000000
0.13928159 0.21717844 0.00000000
0.21861064 0.21419641 0.00000000
0.30629563 0.20845760 0.00000000
0.41750558 0.19739599 0.00000000
0.52114093 0.17507124 0.02168630
0.64171400 0.12058629 0.04183412
0.80688238 0.00000000 0.06023374
0.93553928 0.00000000 0.08085634
0.98186254 0.00000000 0.10555279
1.00000000 0.00000000 0.13613969
1.00000000 0.00000000 0.15205700
1.00000000 0.00000000 0.15205700
0.00000000 0.29203310 0.00000000
0.00000000 0.29201779 0.00000000
0.00000000 0.29194274 0.00000000
0.00000000 0.29173226 0.00000000
0.00000000 0.29124761 0.00000000
0.07603647 0.29023948 0.00000000
0.19287192 0.28826213 0.00000000
0.29038709 0.28451215 0.00000000
0.40919651 0.27749894 0.00000000
0.51532334 0.26428367 0.00000000
0.63795368 0.23828341 0.01157813
0.80471399 0.17890030 0.04875944
0.93490061 0.00000000 0.07382155
0.98186254 0.00000000 0.10085497
1.00000000 0.00000000 0.13289791
1.00000000 0.00000000 0.14929115
1.00000000 0.00000000 0.14929115
0.00000000 0.39051661 0.00000000
0.00000000 0.39050507 0.00000000
0.00000000 0.39044850 0.00000000
0.00000000 0.39028989 0.00000000
0.00000000 0.38992495 0.00000000
0.00000000 0.38916701 0.00000000
0.12619177 0.38768510 0.00000000
0.25911890 0.38489208 0.00000000
0.38816677 0.37973121 0.00000000
0.50448538 0.37023887 0.00000000
0.63102451 0.35253301 0.00000000
0.80074375 0.31786284 0.00000000
0.93373586 0.24722228 0.05777652
0.98186254 0.00000000 0.09140687
1.00000000 0.00000000 0.12669120
1.00000000 0.00000000 0.14406083
1.00000000 0.00000000 0.14406083
0.00000000 0.48653985 0.00000000
0.00000000 0.48653368 0.00000000
0.00000000 0.48650344 0.00000000
0.00000000 0.48641867 0.00000000
0.00000000 0.48622374 0.00000000
0.00000000 0.48581936 0.00000000
0.00000000 0.48503053 0.00000000
0.18353871 0.48355040 0.00000000
0.34590982 0.48083836 0.00000000
0.48422470 0.47592919 0.00000000
0.61834695 0.46705496 0.00000000
0.79356680 0.45080986 0.00000000
0.93164571 0.42000550 0.00000000
0.98186254 0.33233923 0.06979239
1.00000000 0.00000000 0.11436883
1.00000000 0.00000000 0.13396842
1.00000000 0.00000000 0.13396842
0.00000000 0.59767996 0.00000000
0.00000000 0.59767594 0.00000000
0.00000000 0.59765626 0.00000000
0.00000000 0.59760108 0.00000000
0.00000000 0.59747423 0.00000000
0.00000000 0.59721118 0.00000000
0.00000000 0.59669846 0.00000000
0.00000000 0.59573791 0.00000000
0.25221073 0.59398296 0.00000000
0.44508921 0.59082307 0.00000000
0.59495097 0.58516699 0.00000000
0.78062597 0.57500611 0.00000000
0.92792713 0.55646709 0.00000000
0.98186254 0.51809744 0.00000000
1.00000000 0.43230846 0.08617265
1.00000000 0.33609533 0.11286153
1.00000000 0.33609533 0.11286153
0.00000000 0.75676227 0.00000000
0.00000000 0.75675862 0.00000000
0.00000000 0.75674070 0.00000000
0.00000000 0.75669047 0.00000000
0.00000000 0.75657498 0.00000000
0.00000000 0.75633555 0.00000000
0.00000000 0.75586898 0.00000000
0.00000000 0.75499527 0.00000000
0.00000000 0.75340049 0.00000000
0.33975688 0.75053368 0.00000000
0.55024105 0.74541760 0.00000000
0.75231223 0.73627767 0.00000000
0.92097431 0.71977759 0.00000000
0.98186254 0.68923281 0.00000000
1.00000000 0.63307641 0.00000000
1.00000000 0.59859965 0.04372798
1.00000000 0.59859965 0.04372798
0.00000000 0.90117942 0.00000000
0.00000000 0.90117819 0.00000000
0.00000000 0.90117215 0.00000000
0.00000000 0.90115523 0.00000000
0.00000000 0.90111633 0.00000000
0.00000000 0.90103571 0.00000000
0.00000000 0.90087867 0.00000000
0.00000000 0.90058488 0.00000000
0.00000000 0.90004948 0.00000000
0.00000000 0.89908988 0.00000000
0.44062185 0.89738661 0.00000000
0.67931571 0.89437315 0.00000000
0.89852076 0.88902943 0.00000000
0.98186254 0.87519544 0.00000000
0.99820720 0.84803600 0.00000000
1.00000000 0.82620704 0.00000000
1.00000000 0.82620704 0.00000000
0.00000000 0.97670699 0.00000000
0.00000000 0.97670666 0.00000000
0.00000000 0.97670505 0.00000000
0.00000000 0.97670052 0.00000000
0.00000000 0.97669013 0.00000000
0.00000000 0.97666858 0.00000000
0.00000000 0.97662662 0.00000000
0.00000000 0.97654813 0.00000000
0.00000000 0.97640517 0.00000000
0.00000000 0.97614916 0.00000000
0.00000000 0.97569545 0.00000000
0.54476213 0.97489500 0.00000000
0.83733256 0.97348257 0.00000000
0.97544836 0.97097828 0.00000000
0.98931528 0.96661172 0.00000000
1.00000000 0.96123599 0.00000000
1.00000000 0.96123599 0.00000000
0.00000000 0.98186254 0.00000000
0.00000000 0.98186254 0.00000000
0.00000000 0.98186254 0.00000000
0.00000000 0.98186254 0.00000000
0.00000000 0.98186254 0.00000000
0.00000000 0.98186254 0.00000000
0.00000000 0.98186254 0.00000000
0.00000000 0.98186254 0.00000000
0.00000000 0.98186254 0.00000000
0.00000000 0.98186254 0.00000000
0.00000000 0.98186254 0.00000000
0.00000000 0.98186254 0.00000000
0.66687856 0.98186254 0.00000000
0.94925735 0.98186254 0.00000000
0.98186254 0.98186254 0.00000000
1.00000000 0.98185629 0.00000000
1.00000000 0.98185629 0.00000000
0.00000000 1.00000000 0.00000000
0.00000000 1.00000000 0.00000000
0.00000000 1.00000000 0.00000000
0.00000000 1.00000000 0.00000000
0.00000000 1.00000000 0.00000000
0.00000000 1.00000000 0.00000000
0.00000000 1.00000000 0.00000000
0.00000000 1.00000000 0.00000000
0.00000000 1.00000000 0.00000000
0.00000000 1.00000000 0.00000000
0.00000000 1.00000000 0.00000000
0.00000000 1.00000000 0.00000000
0.49502864 1.00000000 0.00000000
0.92605098 1.00000000 0.00000000
0.98185629 1.00000000 0.00000000
1.00000000 1.00000000 0.00000000
1.00000000 1.00000000 0.00000000
0.00000000 1.00000000 0.00000000
0.00000000 1.00000000 0.00000000
0.00000000 1.00000000 0.00000000
0.00000000 1.00000000 0.00000000
0.00000000 1.00000000 0.00000000
0.00000000 1.00000000 0.00000000
0.00000000 1.00000000 0.00000000
0.00000000 1.00000000 0.00000000
0.00000000 1.00000000 0.00000000
0.00000000 1.00000000 0.00000000
0.00000000 1.00000000 0.00000000
0.00000000 1.00000000 0.00000000
0.49502864 1.00000000 0.00000000
0.92605098 1.00000000 0.00000000
0.98185629 1.00000000 0.00000000
1.00000000 1.00000000 0.00000000
1.00000000 1.00000000 0.00000000
0.00000000 0.00000000 0.04553411
0.02141077 0.00000000 0.04554303
0.05015392 0.00000000 0.04558672
0.08391360 0.00000000 0.04570886
0.12555598 0.00000000 0.04598790
0.17715306 0.00000000 0.04655885
0.24108731 0.00000000 0.04764339
0.32270664 0.00000000 0.04958390
0.42542802 0.00000000 0.05286806
0.52698070 0.00000000 0.05812325
0.64551671 0.00000000 0.06607492
0.80908502 0.00000000 0.07751288
0.93618988 0.00000000 0.09331050
0.98186254 0.00000000 0.11453087
1.00000000 0.00000000 0.14259012
1.00000000 0.00000000 0.15762340
1.00000000 0.00000000 0.15762340
0.00000000 0.02170509 0.04547209
0.01858959 0.02111130 0.04548103
0.04936607 0.01778362 0.04552480
0.08353333 0.00000000 0.04564718
0.12534009 0.00000000 0.04592674
0.17701983 0.00000000 0.04649873
0.24100078 0.00000000 0.04758519
0.32264151 0.00000000 0.04952887
0.42539585 0.00000000 0.05281776
0.52695686 0.00000000 0.05807920
0.64550114 0.00000000 0.06603811
0.80907597 0.00000000 0.07748346
0.93618721 0.00000000 0.09328781
0.98186254 0.00000000 0.11451383
1.00000000 0.00000000 0.14257758
1.00000000 0.00000000 0.15761251
1.00000000 0.00000000 0.15761251
0.00000000 0.04642719 0.04516634
0.00000000 0.04622568 0.04517536
0.04521955 0.04521955 0.04521955
0.08163303 0.04221738 0.04534307
0.12427414 0.03383677 0.04562525
0.17636463 0.00000000 0.04620246
0.24057598 0.00000000 0.04729841
0.32232195 0.00000000 0.04925783
0.42523811 0.00000000 0.05257018
0.52683998 0.00000000 0.05786259
0.64542476 0.00000000 0.06585727
0.80903164 0.00000000 0.07733896
0.93617409 0.00000000 0.09317643
0.98186254 0.00000000 0.11443027
1.00000000 0.00000000 0.14251612
1.00000000 0.00000000 0.15755910
1.00000000 0.00000000 0.15755910
0.00000000 0.07683870 0.04429357
0.00000000 0.07673938 0.04430284
0.02895837 0.07624987 0.04434825
0.07594533 0.07485393 0.04447518
0.12121619 0.07149842 0.04476503
0.17450995 0.06373174 0.04535759
0.23937978 0.04263685 0.04648140
0.32142396 0.00000000 0.04848684
0.42479556 0.00000000 0.05186747
0.52651222 0.00000000 0.05724937
0.64521063 0.00000000 0.06534670
0.80890736 0.00000000 0.07693197
0.93613733 0.00000000 0.09286330
0.98186254 0.00000000 0.11419563
1.00000000 0.00000000 0.14234366
1.00000000 0.00000000 0.15740927
1.00000000 0.00000000 0.15740927
0.00000000 0.11464783 0.04219011
0.00000000 0.11459114 0.04220003
0.00000000 0.11431268 0.04224864
0.05986498 0.11352713 0.04238445
0.11374240 0.11169190 0.04269434
0.17013838 0.10774715 0.04332683
0.23659785 0.09942205 0.04452273
0.31934631 0.08046565 0.04664612
0.42377582 0.00000000 0.05019939
0.52575769 0.00000000 0.05580372
0.64471802 0.00000000 0.06415136
0.80862158 0.00000000 0.07598480
0.93605283 0.00000000 0.09213782
0.98186254 0.00000000 0.11365368
1.00000000 0.00000000 0.14194610
1.00000000 0.00000000 0.15706409
1.00000000 0.00000000 0.15706409
0.00000000 0.16160496 0.03728411
0.00000000 0.16156992 0.03729591
0.00000000 0.16139794 0.03735368
0.00000000 0.16091458 0.03751492
0.09553809 0.15979571 0.03788192
0.16053768 0.15744103 0.03862717
0.23068103 0.15270841 0.04002335
0.31497866 0.14325853 0.04246591
0.42165122 0.12334606 0.04646913
0.52418895 0.06642219 0.05262722
0.64369532 0.00000000 0.06156902
0.80802878 0.00000000 0.07396710
0.93587766 0.00000000 0.09060811
0.98186254 0.00000000 0.11251872
1.00000000 0.00000000 0.14111710
1.00000000 0.00000000 0.15634525
1.00000000 0.00000000 0.15634525
0.00000000 0.21984077 0.02341424
0.00000000 0.21981799 0.02343686
0.00000000 0.21970628 0.02354732
0.00000000 0.21939275 0.02385308
0.00000000 0.21866967 0.02453592
0.13908248 0.21716019 0.02587241
0.21850478 0.21417780 0.02822944
0.30622088 0.20843828 0.03202030
0.41747035 0.19737513 0.03765207
0.52111510 0.17504657 0.04551827
0.64169724 0.12054469 0.05604976
0.80687269 0.00000000 0.06979954
0.93553642 0.00000000 0.08752069
0.98186254 0.00000000 0.11026133
1.00000000 0.00000000 0.13948290
1.00000000 0.00000000 0.15493198
1.00000000 0.00000000 0.15493198
0.00000000 0.29202104 0.00000000
0.00000000 0.29200574 0.00000000
0.00000000 0.29193068 0.00000000
0.00000000 0.29172019 0.00000000
0.00000000 0.29123551 0.00000000
0.07557030 0.29022733 0.00000000
0.19274576 0.28824986 0.00000000
0.29031597 0.28449965 0.00000000
0.40914669 0.27748600 0.00000000
0.51529711 0.26426981 0.02425709
0.63793678 0.23826739 0.04292515
0.80470427 0.17887636 0.06089558
0.93489775 0.00000000 0.08129630
0.98186254 0.00000000 0.10585628
1.00000000 0.00000000 0.13635241
1.00000000 0.00000000 0.15223926
1.00000000 0.00000000 0.15223926
0.00000000 0.39050752 0.00000000
0.00000000 0.39049599 0.00000000
0.00000000 0.39043941 0.00000000
0.00000000 0.39028080 0.00000000
0.00000000 0.38991584 0.00000000
0.00000000 0.38915788 0.00000000
0.12596310 0.38767592 0.00000000
0.25903547 0.38488280 0.00000000
0.38811313 0.37972175 0.00000000
0.50445836 0.37022908 0.00000000
0.63100735 0.35252252 0.00000000
0.80073397 0.31785072 0.03657739
