proprietary/odm/odm/etc/hdr3dlut_pq_qcom_grid_out_rgb.cube
LUT_3D_SIZE 9
0.00000000 0.00000000 0.00000000
0.05114099 0.00000000 0.00391782
0.12583248 0.00000000 0.00963981
0.24119836 0.00000000 0.01847778
0.42546933 0.00000000 0.03206696
0.64553672 0.00000000 0.05306496
0.93619332 0.00000000 0.08596105
1.00000000 0.00000000 0.13867759
1.00000000 0.00000000 0.15423744
0.00000000 0.04661714 0.00000000
0.04635632 0.04541660 0.00000000
0.12455462 0.03413160 0.00492694
0.24068737 0.00000000 0.01711552
0.42527944 0.00000000 0.03146152
0.64544477 0.00000000 0.05276864
0.93617753 0.00000000 0.08581063
1.00000000 0.00000000 0.13860065
1.00000000 0.00000000 0.15417115
0.00000000 0.11470155 0.00000000
0.00000000 0.11436662 0.00000000
0.11405979 0.11174762 0.00000000
0.23671186 0.09948762 0.00000000
0.42381736 0.00000000 0.02613244
0.64473806 0.00000000 0.05041102
0.93605627 0.00000000 0.08464308
1.00000000 0.00000000 0.13800785
1.00000000 0.00000000 0.15366078
0.00000000 0.21986237 0.00000000
0.00000000 0.21972789 0.00000000
0.00000000 0.21869143 0.00000000
0.21863222 0.21420020 0.00000000
0.41751276 0.19740024 0.00000000
0.64171742 0.12059477 0.03796771
0.93553986 0.00000000 0.07939927
1.00000000 0.00000000 0.13544346
1.00000000 0.00000000 0.15146113
0.00000000 0.39051847 0.00000000
0.00000000 0.39045036 0.00000000
0.00000000 0.38992680 0.00000000
0.12623835 0.38768697 0.00000000
0.38817771 0.37973313 0.00000000
0.63102801 0.35253515 0.00000000
0.93373644 0.24722538 0.05540562
1.00000000 0.00000000 0.12592069
1.00000000 0.00000000 0.14341790
0.00000000 0.59768060 0.00000000
0.00000000 0.59765690 0.00000000
0.00000000 0.59747488 0.00000000
0.00000000 0.59669911 0.00000000
0.25222840 0.59398361 0.00000000
0.59495477 0.58516765 0.00000000
0.92792772 0.55646781 0.00000000
1.00000000 0.43230963 0.08484230
1.00000000 0.33609762 0.11195443
0.00000000 0.90117961 0.00000000
0.00000000 0.90117235 0.00000000
0.00000000 0.90111653 0.00000000
0.00000000 0.90087887 0.00000000
0.00000000 0.90004968 0.00000000
0.44062851 0.89738681 0.00000000
0.89852192 0.88902963 0.00000000
0.99820738 0.84803633 0.00000000
1.00000000 0.82620741 0.00000000
0.00000000 0.98186254 0.00000000
0.00000000 0.98186254 0.00000000
0.00000000 0.98186254 0.00000000
0.00000000 0.98186254 0.00000000
0.00000000 0.98186254 0.00000000
0.00000000 0.98186254 0.00000000
0.66688266 0.98186254 0.00000000
0.98186254 0.98186254 0.00000000
1.00000000 0.98185629 0.00000000
0.00000000 1.00000000 0.00000000
0.00000000 1.00000000 0.00000000
0.00000000 1.00000000 0.00000000
0.00000000 1.00000000 0.00000000
0.00000000 1.00000000 0.00000000
0.00000000 1.00000000 0.00000000
0.49503431 1.00000000 0.00000000
0.98185629 1.00000000 0.00000000
1.00000000 1.00000000 0.00000000
0.00000000 0.00000000 0.04553411
0.05015392 0.00000000 0.04558672
0.12555598 0.00000000 0.04598790
0.24108731 0.00000000 0.04764339
0.42542802 0.00000000 0.05286806
0.64551671 0.00000000 0.06607492
0.93618988 0.00000000 0.09331050
1.00000000 0.00000000 0.14259012
1.00000000 0.00000000 0.15762340
0.00000000 0.04642719 0.04516634
0.04521955 0.04521955 0.04521955
0.12427414 0.03383677 0.04562525
0.24057598 0.00000000 0.04729841
0.42523811 0.00000000 0.05257018
0.64542476 0.00000000 0.06585727
0.93617409 0.00000000 0.09317643
1.00000000 0.00000000 0.14251612
1.00000000 0.00000000 0.15755910
0.00000000 0.11464783 0.04219011
0.00000000 0.11431268 0.04224864
0.11374240 0.11169190 0.04269434
0.23659785 0.09942205 0.04452273
0.42377582 0.00000000 0.05019939
0.64471802 0.00000000 0.06415136
0.93605283 0.00000000 0.09213782
1.00000000 0.00000000 0.14194610
1.00000000 0.00000000 0.15706409
0.00000000 0.21984077 0.02341424
0.00000000 0.21970628 0.02354732
0.00000000 0.21866967 0.02453592
0.21850478 0.21417780 0.02822944
0.41747035 0.19737513 0.03765207
0.64169724 0.12054469 0.05604976
0.93553642 0.00000000 0.08752069
1.00000000 0.00000000 0.13948290
1.00000000 0.00000000 0.15493198
0.00000000 0.39050752 0.00000000
0.00000000 0.39043941 0.00000000
0.00000000 0.38991584 0.00000000
0.12596310 0.38767592 0.00000000
0.38811313 0.37972175 0.00000000
0.63100735 0.35252252 0.00000000
0.93373299 0.24720706 0.06781803
1.00000000 0.00000000 0.13037702
1.00000000 0.00000000 0.14715613
0.00000000 0.59767680 0.00000000
0.00000000 0.59765310 0.00000000
0.00000000 0.59747107 0.00000000
0.00000000 0.59669529 0.00000000
0.25212409 0.59397977 0.00000000
0.59493234 0.58516373 0.00000000
0.92792424 0.55646360 0.00000000
1.00000000 0.43230273 0.09231468
1.00000000 0.33608412 0.11716779
0.00000000 0.90117845 0.00000000
0.00000000 0.90117118 0.00000000
0.00000000 0.90111536 0.00000000
0.00000000 0.90087770 0.00000000
0.00000000 0.90004851 0.00000000
0.44058918 0.89738563 0.00000000
0.89851506 0.88902844 0.00000000
0.99820634 0.84803441 0.00000000
1.00000000 0.82620525 0.00000000
0.00000000 0.98186254 0.00000000
0.00000000 0.98186254 0.00000000
0.00000000 0.98186254 0.00000000
0.00000000 0.98186254 0.00000000
0.00000000 0.98186254 0.00000000
0.00000000 0.98186254 0.00000000
0.66685844 0.98186254 0.00000000
0.98186254 0.98186254 0.00000000
1.00000000 0.98185629 0.00000000
0.00000000 1.00000000 0.00000000
0.00000000 1.00000000 0.00000000
0.00000000 1.00000000 0.00000000
0.00000000 1.00000000 0.00000000
0.00000000 1.00000000 0.00000000
0.00000000 1.00000000 0.00000000
0.49500089 1.00000000 0.00000000
0.98185629 1.00000000 0.00000000
1.00000000 1.00000000 0.00000000
0.00000000 0.00000000 0.11203675
0.04143381 0.00000000 0.11205168
0.12340380 0.00000000 0.11216620
0.24023213 0.00000000 0.11265189
0.42511065 0.00000000 0.11432260
0.64536306 0.00000000 0.11945626
0.93616350 0.00000000 0.13373808
1.00000000 0.00000000 0.16864636
1.00000000 0.00000000 0.18080187
0.00000000 0.04493081 0.11193300
0.03466895 0.04366454 0.11194795
0.12209015 0.03144142 0.11206262
0.23971825 0.00000000 0.11254894
0.42492053 0.00000000 0.11422175
0.64527107 0.00000000 0.11936143
0.93614771 0.00000000 0.13365713
1.00000000 0.00000000 0.16858787
1.00000000 0.00000000 0.18074880
0.00000000 0.11423417 0.11113184
0.00000000 0.11389731 0.11114694
0.11126276 0.11126276 0.11126276
0.23571977 0.09891654 0.11175396
0.42345671 0.00000000 0.11344315
0.64456410 0.00000000 0.11862971
0.93602645 0.00000000 0.13303323
1.00000000 0.00000000 0.16813774
1.00000000 0.00000000 0.18034062
0.00000000 0.21967484 0.10762703
0.00000000 0.21954020 0.10764282
0.00000000 0.21850249 0.10776396
0.21752271 0.21400569 0.10827750
0.41714447 0.19718213 0.11004166
0.64154230 0.12015920 0.11544162
0.93551002 0.00000000 0.13033024
1.00000000 0.00000000 0.16620241
1.00000000 0.00000000 0.17858832
0.00000000 0.39042350 0.09393008
0.00000000 0.39035536 0.09394918
0.00000000 0.38983163 0.09409569
0.12382086 0.38759103 0.09471583
0.38761670 0.37963436 0.09683453
0.63084873 0.35242554 0.10321904
0.93370652 0.24706627 0.12022769
1.00000000 0.00000000 0.15919491
1.00000000 0.00000000 0.17228249
0.00000000 0.59764756 0.00000000
0.00000000 0.59762386 0.00000000
0.00000000 0.59744182 0.00000000
0.00000000 0.59666599 0.00000000
0.25132106 0.59395028 0.00000000
0.59476008 0.58513361 0.01702243
0.92789753 0.55643129 0.07436755
1.00000000 0.43224973 0.13313857
1.00000000 0.33598044 0.14949571
0.00000000 0.90116948 0.00000000
0.00000000 0.90116221 0.00000000
0.00000000 0.90110640 0.00000000
0.00000000 0.90086873 0.00000000
0.00000000 0.90003952 0.00000000
0.44028700 0.89737661 0.00000000
0.89846236 0.88901930 0.00000000
0.99819833 0.84801974 0.00000000
1.00000000 0.82618868 0.00000000
0.00000000 0.98186254 0.00000000
0.00000000 0.98186254 0.00000000
0.00000000 0.98186254 0.00000000
0.00000000 0.98186254 0.00000000
0.00000000 0.98186254 0.00000000
0.00000000 0.98186254 0.00000000
0.66667244 0.98186254 0.00000000
0.98186254 0.98186254 0.00000000
1.00000000 0.98185629 0.00000000
0.00000000 1.00000000 0.00000000
0.00000000 1.00000000 0.00000000
0.00000000 1.00000000 0.00000000
0.00000000 1.00000000 0.00000000
0.00000000 1.00000000 0.00000000
0.00000000 1.00000000 0.00000000
0.49474420 1.00000000 0.00000000
0.98185629 1.00000000 0.00000000
1.00000000 1.00000000 0.00000000
0.00000000 0.00000000 0.21475442
0.00000000 0.00000000 0.21476043
0.11358944 0.00000000 0.21480651
0.23654303 0.00000000 0.21500255
0.42375586 0.00000000 0.21568402
0.64470839 0.00000000 0.21784647
0.93605118 0.00000000 0.22439015
1.00000000 0.00000000 0.24336331
1.00000000 0.00000000 0.25084626
0.00000000 0.03759107 0.21471272
0.00000000 0.03594757 0.21471873
0.11211173 0.01537860 0.21476483
0.23601786 0.00000000 0.21496092
0.42356490 0.00000000 0.21564257
0.64461627 0.00000000 0.21780559
0.93603539 0.00000000 0.22435094
1.00000000 0.00000000 0.24332831
1.00000000 0.00000000 0.25081271
0.00000000 0.11244930 0.21439214
0.00000000 0.11210490 0.21439816
0.09971467 0.10940945 0.21444436
0.23192949 0.09672296 0.21464086
0.42209449 0.00000000 0.21532393
0.64390828 0.00000000 0.21749138
0.93591411 0.00000000 0.22404951
1.00000000 0.00000000 0.24305931
1.00000000 0.00000000 0.25055490
0.00000000 0.21896649 0.21301987
0.00000000 0.21883124 0.21302594
0.00000000 0.21778880 0.21307255
0.21327083 0.21327083 0.21327083
0.41575318 0.19635759 0.21396002
0.64088216 0.11849842 0.21614661
0.93539759 0.00000000 0.22275991
1.00000000 0.00000000 0.24190952
1.00000000 0.00000000 0.24945323
0.00000000 0.39006551 0.20813624
0.00000000 0.38999729 0.20814251
0.00000000 0.38947288 0.20819066
0.11405756 0.38722937 0.20839547
0.38549341 0.37926203 0.20910725
0.63017284 0.35201230 0.21136430
0.93359379 0.24646571 0.21818025
1.00000000 0.00000000 0.23784004
1.00000000 0.00000000 0.24555832
0.00000000 0.59752307 0.19129471
0.00000000 0.59749937 0.19130177
0.00000000 0.59731727 0.19135596
0.00000000 0.59654121 0.19158639
0.24786169 0.59382470 0.19238668
0.59402602 0.58500539 0.19491888
0.92778382 0.55629370 0.20251791
1.00000000 0.43202402 0.22409929
1.00000000 0.33553856 0.23246009
0.00000000 0.90113131 0.11608484
0.00000000 0.90112404 0.11609904
0.00000000 0.90106822 0.11620802
0.00000000 0.90083054 0.11667034
0.00000000 0.90000128 0.11826236
0.43899738 0.89733821 0.12316967
0.89823797 0.88898040 0.13692441
0.99816423 0.84795727 0.17132835
1.00000000 0.82611812 0.18290869
0.00000000 0.98186254 0.00000000
0.00000000 0.98186254 0.00000000
0.00000000 0.98186254 0.00000000
0.00000000 0.98186254 0.00000000
0.00000000 0.98186254 0.00000000
0.00000000 0.98186254 0.00000000
0.66587981 0.98186254 0.00000000
0.98186254 0.98186254 0.00000000
1.00000000 0.98185629 0.00000000
0.00000000 1.00000000 0.00000000
0.00000000 1.00000000 0.00000000
0.00000000 1.00000000 0.00000000
0.00000000 1.00000000 0.00000000
0.00000000 1.00000000 0.00000000
0.00000000 1.00000000 0.00000000
0.49364940 1.00000000 0.00000000
0.98185629 1.00000000 0.00000000
1.00000000 1.00000000 0.00000000
0.00000000 0.00000000 0.38079011
0.00000000 0.00000000 0.38079316
0.06189342 0.00000000 0.38081657
0.22300337 0.00000000 0.38091620
0.41898481 0.00000000 0.38126323
0.64241880 0.00000000 0.38237169
0.93565950 0.00000000 0.38579225
1.00000000 0.00000000 0.39625423
1.00000000 0.00000000 0.40059548
0.00000000 0.00000000 0.38076893
0.00000000 0.00000000 0.38077198
0.05832441 0.00000000 0.38079539
0.22243289 0.00000000 0.38089503
0.41879079 0.00000000 0.38124209
0.64232622 0.00000000 0.38235064
0.93564370 0.00000000 0.38577146
1.00000000 0.00000000 0.39623420
1.00000000 0.00000000 0.40057576
0.00000000 0.10589218 0.38060627
0.00000000 0.10551743 0.38060933
0.00000000 0.10257551 0.38063275
0.21798230 0.08846643 0.38073245
0.41729676 0.00000000 0.38107972
0.64161470 0.00000000 0.38218893
0.93552235 0.00000000 0.38561175
1.00000000 0.00000000 0.39608037
1.00000000 0.00000000 0.40042426
0.00000000 0.21647165 0.37991276
0.00000000 0.21633422 0.37991582
0.00000000 0.21527479 0.37993930
0.19742498 0.21068085 0.38003925
0.41085123 0.19344448 0.38038741
0.63857333 0.11243626 0.38149943
0.93500553 0.00000000 0.38493083
1.00000000 0.00000000 0.39542457
1.00000000 0.00000000 0.39977842
0.00000000 0.38881390 0.37748110
0.00000000 0.38874537 0.37748418
0.00000000 0.38821860 0.37750788
0.06297851 0.38596486 0.37760873
0.37796003 0.37796003 0.37796003
0.62780865 0.35056635 0.37908203
0.93320066 0.24435589 0.38254377
1.00000000 0.00000000 0.39312638
1.00000000 0.00000000 0.39751543
0.00000000 0.59708882 0.36954174
0.00000000 0.59706508 0.36954492
0.00000000 0.59688280 0.36956933
0.00000000 0.59610596 0.36967323
0.23523684 0.59338665 0.37003511
0.59145695 0.58455805 0.37119077
0.92738723 0.55581368 0.37475481
1.00000000 0.43123585 0.38563642
1.00000000 0.33399174 0.39014363
0.00000000 0.90099822 0.34315983
0.00000000 0.90099095 0.34316336
0.00000000 0.90093511 0.34319044
0.00000000 0.90069739 0.34330569
0.00000000 0.89986796 0.34370703
0.43445955 0.89720434 0.34498794
0.89745507 0.88884474 0.34893160
0.99804469 0.84773888 0.36168825
1.00000000 0.82587209 0.36585198
0.00000000 0.98186254 0.24134348
0.00000000 0.98186254 0.24134858
0.00000000 0.98186254 0.24138772
0.00000000 0.98186254 0.24155424
0.00000000 0.98186254 0.24213351
0.00000000 0.98186254 0.24397575
0.66310624 0.98186254 0.24958705
0.98186254 0.98186254 0.26613863
1.00000000 0.98185629 0.27276577
0.00000000 1.00000000 0.17554204
0.00000000 1.00000000 0.17555000
0.00000000 1.00000000 0.17561111
0.00000000 1.00000000 0.17587092
0.00000000 1.00000000 0.17677248
0.00000000 1.00000000 0.17961739
0.48980593 1.00000000 0.18809000
0.98185629 1.00000000 0.21172303
1.00000000 1.00000000 0.22074305
0.00000000 0.00000000 0.58638858
0.00000000 0.00000000 0.58638963
0.00000000 0.00000000 0.58639771
0.16890613 0.00000000 0.58643209
0.40040652 0.00000000 0.58655193
0.63500810 0.00000000 0.58693548
0.93440354 0.00000000 0.58812668
1.00000000 0.00000000 0.59183804
1.00000000 0.00000000 0.59341038
0.00000000 0.00000000 0.58638128
0.00000000 0.00000000 0.58638233
0.00000000 0.00000000 0.58639040
0.16806296 0.00000000 0.58642479
0.40012221 0.00000000 0.58654463
0.63491400 0.00000000 0.58692818
0.93438771 0.00000000 0.58811941
1.00000000 0.00000000 0.59183082
1.00000000 0.00000000 0.59340320
0.00000000 0.07954380 0.58632517
0.00000000 0.07898305 0.58632622
0.00000000 0.07447727 0.58633430
0.16138077 0.04840405 0.58636869
0.39792955 0.00000000 0.58648854
0.63419082 0.00000000 0.58687216
0.93426612 0.00000000 0.58806353
1.00000000 0.00000000 0.59177544
1.00000000 0.00000000 0.59334802
0.00000000 0.20819684 0.58608626
0.00000000 0.20805169 0.58608732
0.00000000 0.20693236 0.58609540
0.12718076 0.20206965 0.58612980
0.38840022 0.18367326 0.58624972
0.63109920 0.08894761 0.58663356
0.93374833 0.00000000 0.58782562
1.00000000 0.00000000 0.59153961
1.00000000 0.00000000 0.59311306
0.00000000 0.38476703 0.58525233
0.00000000 0.38469749 0.58525338
0.00000000 0.38416293 0.58526148
0.00000000 0.38187557 0.58529596
0.35228650 0.37374734 0.58541612
0.62015183 0.34587837 0.58580071
0.93194005 0.23742081 0.58699513
1.00000000 0.00000000 0.59071644
1.00000000 0.00000000 0.59229296
0.00000000 0.59569508 0.58257028
0.00000000 0.59567127 0.58257134
0.00000000 0.59548839 0.58257949
0.00000000 0.59470899 0.58261417
0.18637293 0.59198069 0.58273512
0.58312219 0.58312219 0.58312219
0.92611553 0.55427245 0.58432429
1.00000000 0.42869798 0.58806929
1.00000000 0.32896904 0.58965571
0.00000000 0.90057179 0.57411226
0.00000000 0.90056452 0.57411334
0.00000000 0.90050865 0.57412166
0.00000000 0.90027076 0.57415708
0.00000000 0.89944076 0.57428051
0.41945944 0.89677538 0.57467558
0.89494136 0.88841013 0.57590242
0.99762497 0.84700764 0.58099084
1.00000000 0.82508346 0.58134223
0.00000000 0.98186254 0.54637295
0.00000000 0.98186254 0.54637411
0.00000000 0.98186254 0.54638303
0.00000000 0.98186254 0.54642098
0.00000000 0.98186254 0.54655328
0.00000000 0.98186254 0.54697666
0.65411233 0.98186254 0.54829111
0.98186254 0.98186254 0.55238622
1.00000000 0.98185629 0.55411393
0.00000000 1.00000000 0.53263984
0.00000000 1.00000000 0.53264123
0.00000000 1.00000000 0.53265187
0.00000000 1.00000000 0.53269717
0.00000000 1.00000000 0.53285506
0.00000000 1.00000000 0.53336026
0.47720292 1.00000000 0.53492795
0.98185629 1.00000000 0.53980461
1.00000000 1.00000000 0.54186291
0.00000000 0.00000000 0.89020944
0.00000000 0.00000000 0.89020976
0.00000000 0.00000000 0.89021222
0.00000000 0.00000000 0.89022266
0.31890543 0.00000000 0.89025907
0.61113574 0.00000000 0.89037567
0.93048036 0.00000000 0.89073831
1.00000000 0.00000000 0.89186898
1.00000000 0.00000000 0.89235231
0.00000000 0.00000000 0.89020722
0.00000000 0.00000000 0.89020754
0.00000000 0.00000000 0.89021000
0.00000000 0.00000000 0.89022044
0.31851429 0.00000000 0.89025686
0.61103646 0.00000000 0.89037345
0.93046443 0.00000000 0.89073609
1.00000000 0.00000000 0.89186677
1.00000000 0.00000000 0.89235010
0.00000000 0.00000000 0.89019018
0.00000000 0.00000000 0.89019050
0.00000000 0.00000000 0.89019295
0.00000000 0.00000000 0.89020340
0.31548816 0.00000000 0.89023981
0.61027334 0.00000000 0.89035642
0.93034214 0.00000000 0.89071907
1.00000000 0.00000000 0.89184977
1.00000000 0.00000000 0.89233312
0.00000000 0.17889862 0.89011763
0.00000000 0.17871909 0.89011795
0.00000000 0.17733207 0.89012040
0.00000000 0.17124987 0.89013085
0.30212552 0.14719749 0.89016726
0.60700968 0.00000000 0.89028388
0.92982128 0.00000000 0.89064658
1.00000000 0.00000000 0.89177741
1.00000000 0.00000000 0.89226081
0.00000000 0.37177655 0.88986462
0.00000000 0.37170358 0.88986494
0.00000000 0.37114263 0.88986740
0.00000000 0.36874128 0.88987785
0.25445007 0.36019341 0.88991428
0.59543524 0.33068868 0.89003095
0.92800228 0.21377252 0.89039380
1.00000000 0.00000000 0.89152508
1.00000000 0.00000000 0.89200867
0.00000000 0.59132893 0.88905373
0.00000000 0.59130487 0.88905405
0.00000000 0.59112010 0.88905651
0.00000000 0.59033262 0.88906697
0.00000000 0.58757579 0.88910345
0.55605423 0.57862245 0.88922025
0.92214286 0.54943803 0.88958358
1.00000000 0.42066343 0.89071630
1.00000000 0.31260752 0.89120051
0.00000000 0.89924312 0.88652391
0.00000000 0.89923583 0.88652423
0.00000000 0.89917984 0.88652670
0.00000000 0.89894147 0.88653721
0.00000000 0.89810976 0.88657384
0.34889677 0.89543881 0.88669110
0.88705588 0.88705588 0.88705588
0.99613854 0.84457457 0.89008274
1.00000000 0.82267923 0.88867930
0.00000000 0.98186254 0.87363195
0.00000000 0.98186254 0.87363249
0.00000000 0.98186254 0.87363661
0.00000000 0.98186254 0.87365416
0.00000000 0.98186254 0.87371534
0.00000000 0.98186254 0.87391123
0.62948768 0.98186254 0.87452036
0.98186254 0.98186254 0.87642737
1.00000000 0.98185629 0.87723220
0.00000000 1.00000000 0.86794301
0.00000000 1.00000000 0.86794355
0.00000000 1.00000000 0.86794771
0.00000000 1.00000000 0.86796542
0.00000000 1.00000000 0.86802716
0.00000000 1.00000000 0.86822485
0.43463466 1.00000000 0.86883956
0.98185629 1.00000000 0.87076397
1.00000000 1.00000000 0.87158175
0.00000000 0.00000000 0.98186254
0.00000000 0.00000000 0.98186254
0.00000000 0.00000000 0.98186254
0.00000000 0.00000000 0.98186254
0.00000000 0.00000000 0.98186254
0.52351676 0.00000000 0.98186254
0.91473182 0.00000000 0.98186254
0.99989012 0.00000000 0.98264036
1.00000000 0.00000000 0.98185629
0.00000000 0.00000000 0.98186254
0.00000000 0.00000000 0.98186254
0.00000000 0.00000000 0.98186254
0.00000000 0.00000000 0.98186254
0.00000000 0.00000000 0.98186254
0.52337473 0.00000000 0.98186254
0.91470106 0.00000000 0.98186254
0.99988858 0.00000000 0.98264448
1.00000000 0.00000000 0.98185629
0.00000000 0.00000000 0.98186254
0.00000000 0.00000000 0.98186254
0.00000000 0.00000000 0.98186254
0.00000000 0.00000000 0.98186254
0.00000000 0.00000000 0.98186254
0.52228237 0.00000000 0.98186254
0.91446480 0.00000000 0.98186254
0.99987669 0.00000000 0.98267611
1.00000000 0.00000000 0.98185629
0.00000000 0.00000000 0.98186254
0.00000000 0.00000000 0.98186254
0.00000000 0.00000000 0.98186254
0.00000000 0.00000000 0.98186254
0.00000000 0.00000000 0.98186254
0.51759601 0.00000000 0.98186254
0.91345809 0.00000000 0.98186254
0.99982609 0.00000000 0.98281082
1.00000000 0.00000000 0.98185629
0.00000000 0.32617323 0.98186254
0.00000000 0.32608559 0.98186254
0.00000000 0.32541152 0.98186254
0.00000000 0.32251988 0.98186254
0.00000000 0.31214325 0.98186254
0.50077409 0.27834170 0.98186254
0.90993637 0.08247675 0.98186254
0.99958569 0.00000000 0.98321826
1.00000000 0.00000000 0.98185629
0.00000000 0.57733008 0.98186254
0.00000000 0.57730520 0.98186254
0.00000000 0.57711413 0.98186254
0.00000000 0.57629971 0.98186254
0.00000000 0.57344790 0.98186254
0.44065842 0.56417818 0.98186254
0.89852714 0.53256501 0.98186254
0.99820817 0.38833617 0.98393180
1.00000000 0.25773255 0.98185629
0.00000000 0.89505711 0.98186254
0.00000000 0.89504977 0.98186254
0.00000000 0.89499342 0.98186254
0.00000000 0.89475348 0.98186254
0.00000000 0.89391630 0.98186254
0.00000000 0.89122775 0.98186254
0.84555967 0.88065496 0.98186254
0.99043072 0.83601487 0.98274701
1.00000000 0.81573224 0.98185629
0.00000000 0.98186254 0.98186254
0.00000000 0.98186254 0.98186254
0.00000000 0.98186254 0.98186254
0.00000000 0.98186254 0.98186254
0.00000000 0.98186254 0.98186254
0.00000000 0.98186254 0.98186254
0.54849647 0.98186254 0.98186254
0.98186254 0.98186254 0.98186254
1.00000000 0.98185629 0.98185629
0.00000000 1.00000000 0.98185629
0.00000000 1.00000000 0.98185629
0.00000000 1.00000000 0.98185629
0.00000000 1.00000000 0.98185629
0.00000000 1.00000000 0.98185629
0.00000000 1.00000000 0.98185629
0.07887985 1.00000000 0.98185629
0.98185629 1.00000000 0.98185629
1.00000000 1.00000000 0.98185629
0.00000000 0.00000000 1.00000000
0.00000000 0.00000000 1.00000000
0.00000000 0.00000000 1.00000000
0.00000000 0.00000000 1.00000000
0.00000000 0.00000000 1.00000000
0.47331333 0.00000000 1.00000000
0.90449145 0.00000000 1.00000000
0.99719677 0.00000000 1.00000000
1.00000000 0.00000000 1.00000000
0.00000000 0.00000000 1.00000000
0.00000000 0.00000000 1.00000000
0.00000000 0.00000000 1.00000000
0.00000000 0.00000000 1.00000000
0.00000000 0.00000000 1.00000000
0.47314977 0.00000000 1.00000000
0.90446020 0.00000000 1.00000000
0.99719102 0.00000000 1.00000000
1.00000000 0.00000000 1.00000000
0.00000000 0.00000000 1.00000000
0.00000000 0.00000000 1.00000000
0.00000000 0.00000000 1.00000000
0.00000000 0.00000000 1.00000000
0.00000000 0.00000000 1.00000000
0.47189121 0.00000000 1.00000000
0.90422019 0.00000000 1.00000000
0.99714687 0.00000000 1.00000000
1.00000000 0.00000000 1.00000000
0.00000000 0.00000000 1.00000000
0.00000000 0.00000000 1.00000000
0.00000000 0.00000000 1.00000000
0.00000000 0.00000000 1.00000000
0.00000000 0.00000000 1.00000000
0.46648018 0.00000000 1.00000000
0.90319747 0.00000000 1.00000000
0.99695888 0.00000000 1.00000000
1.00000000 0.00000000 1.00000000
0.00000000 0.30374436 1.00000000
0.00000000 0.30364752 1.00000000
0.00000000 0.30290251 1.00000000
0.00000000 0.29988221 1.00000000
0.00000000 0.28972354 1.00000000
0.44689070 0.25322332 1.00000000
0.89961940 0.00000000 1.00000000
0.99630316 0.00000000 1.00000000
1.00000000 0.00000000 1.00000000
0.00000000 0.57121778 1.00000000
0.00000000 0.57119253 1.00000000
0.00000000 0.57099859 1.00000000
0.00000000 0.57017193 1.00000000
0.00000000 0.56727689 1.00000000
0.35913902 0.55786298 1.00000000
0.88802389 0.52466074 1.00000000
0.99419904 0.37019959 1.00000000
1.00000000 0.22935031 1.00000000
0.00000000 0.89326030 1.00000000
0.00000000 0.89325294 1.00000000
0.00000000 0.89319643 1.00000000
0.00000000 0.89295582 1.00000000
0.00000000 0.89211629 1.00000000
0.00000000 0.88942015 1.00000000
0.82670787 0.87764766 1.00000000
0.98761177 0.83202356 1.00000000
1.00000000 0.81274830 1.00000000
0.00000000 0.98185629 1.00000000
0.00000000 0.98185629 1.00000000
0.00000000 0.98185629 1.00000000
0.00000000 0.98185629 1.00000000
0.00000000 0.98185629 1.00000000
0.00000000 0.98185629 1.00000000
0.50287673 0.98185629 1.00000000
0.98185629 0.98185629 1.00000000
1.00000000 0.98185629 1.00000000
0.00000000 1.00000000 0.99961416
0.00000000 1.00000000 0.99961421
0.00000000 1.00000000 0.99961465
0.00000000 1.00000000 0.99961653
0.00000000 1.00000000 0.99962306
0.00000000 1.00000000 0.99964397
0.00000000 1.00000000 0.99970903
0.98185629 1.00000000 0.99991311
1.00000000 1.00000000 1.00000000
