proprietary/odm/odm/etc/hdr3dlut_pq_qcom_grid_out_rgb.cube
LUT_3D_SIZE 5
0.00000000 0.00000000 0.00000000
0.12583248 0.00000000 0.00963981
0.42546933 0.00000000 0.03206696
0.93619332 0.00000000 0.08596105
1.00000000 0.00000000 0.15423744
0.00000000 0.11470155 0.00000000
0.11405979 0.11174762 0.00000000
0.42381736 0.00000000 0.02613244
0.93605627 0.00000000 0.08464308
1.00000000 0.00000000 0.15366078
0.00000000 0.39051847 0.00000000
0.00000000 0.38992680 0.00000000
0.38817771 0.37973313 0.00000000
0.93373644 0.24722538 0.05540562
1.00000000 0.00000000 0.14341790
0.00000000 0.90117961 0.00000000
0.00000000 0.90111653 0.00000000
0.00000000 0.90004968 0.00000000
0.89852192 0.88902963 0.00000000
1.00000000 0.82620741 0.00000000
0.00000000 1.00000000 0.00000000
0.00000000 1.00000000 0.00000000
0.00000000 1.00000000 0.00000000
0.49503431 1.00000000 0.00000000
1.00000000 1.00000000 0.00000000
0.00000000 0.00000000 0.11203675
0.12340380 0.00000000 0.11216620
0.42511065 0.00000000 0.11432260
0.93616350 0.00000000 0.13373808
1.00000000 0.00000000 0.18080187
0.00000000 0.11423417 0.11113184
0.11126276 0.11126276 0.11126276
0.42345671 0.00000000 0.11344315
0.93602645 0.00000000 0.13303323
1.00000000 0.00000000 0.18034062
0.00000000 0.39042350 0.09393008
0.00000000 0.38983163 0.09409569
0.38761670 0.37963436 0.09683453
0.93370652 0.24706627 0.12022769
1.00000000 0.00000000 0.17228249
0.00000000 0.90116948 0.00000000
0.00000000 0.90110640 0.00000000
0.00000000 0.90003952 0.00000000
0.89846236 0.88901930 0.00000000
1.00000000 0.82618868 0.00000000
0.00000000 1.00000000 0.00000000
0.00000000 1.00000000 0.00000000
0.00000000 1.00000000 0.00000000
0.49474420 1.00000000 0.00000000
1.00000000 1.00000000 0.00000000
0.00000000 0.00000000 0.38079011
0.06189342 0.00000000 0.38081657
0.41898481 0.00000000 0.38126323
0.93565950 0.00000000 0.38579225
1.00000000 0.00000000 0.40059548
0.00000000 0.10589218 0.38060627
0.00000000 0.10257551 0.38063275
0.41729676 0.00000000 0.38107972
0.93552235 0.00000000 0.38561175
1.00000000 0.00000000 0.40042426
0.00000000 0.38881390 0.37748110
0.00000000 0.38821860 0.37750788
0.37796003 0.37796003 0.37796003
0.93320066 0.24435589 0.38254377
1.00000000 0.00000000 0.39751543
0.00000000 0.90099822 0.34315983
0.00000000 0.90093511 0.34319044
0.00000000 0.89986796 0.34370703
0.89745507 0.88884474 0.34893160
1.00000000 0.82587209 0.36585198
0.00000000 1.00000000 0.17554204
0.00000000 1.00000000 0.17561111
0.00000000 1.00000000 0.17677248
0.48980593 1.00000000 0.18809000
1.00000000 1.00000000 0.22074305
0.00000000 0.00000000 0.89020944
0.00000000 0.00000000 0.89021222
0.31890543 0.00000000 0.89025907
0.93048036 0.00000000 0.89073831
1.00000000 0.00000000 0.89235231
0.00000000 0.00000000 0.89019018
0.00000000 0.00000000 0.89019295
0.31548816 0.00000000 0.89023981
0.93034214 0.00000000 0.89071907
1.00000000 0.00000000 0.89233312
0.00000000 0.37177655 0.88986462
0.00000000 0.37114263 0.88986740
0.25445007 0.36019341 0.88991428
0.92800228 0.21377252 0.89039380
1.00000000 0.00000000 0.89200867
0.00000000 0.89924312 0.88652391
0.00000000 0.89917984 0.88652670
0.00000000 0.89810976 0.88657384
0.88705588 0.88705588 0.88705588
1.00000000 0.82267923 0.88867930
0.00000000 1.00000000 0.86794301
0.00000000 1.00000000 0.86794771
0.00000000 1.00000000 0.86802716
0.43463466 1.00000000 0.86883956
1.00000000 1.00000000 0.87158175
0.00000000 0.00000000 1.00000000
0.00000000 0.00000000 1.00000000
0.00000000 0.00000000 1.00000000
0.90449145 0.00000000 1.00000000
1.00000000 0.00000000 1.00000000
0.00000000 0.00000000 1.00000000
0.00000000 0.00000000 1.00000000
0.00000000 0.00000000 1.00000000
0.90422019 0.00000000 1.00000000
1.00000000 0.00000000 1.00000000
0.00000000 0.30374436 1.00000000
0.00000000 0.30290251 1.00000000
0.00000000 0.28972354 1.00000000
0.89961940 0.00000000 1.00000000
1.00000000 0.00000000 1.00000000
0.00000000 0.89326030 1.00000000
0.00000000 0.89319643 1.00000000
0.00000000 0.89211629 1.00000000
0.82670787 0.87764766 1.00000000
1.00000000 0.81274830 1.00000000
0.00000000 1.00000000 0.99961416
0.00000000 1.00000000 0.99961465
0.00000000 1.00000000 0.99962306
0.00000000 1.00000000 0.99970903
1.00000000 1.00000000 1.00000000
